;FLAVOR:Marlin
;TIME:20774
;Filament used: 19.2225m
;Layer height: 0.2
;MINX:49.2
;MINY:49.2
;MINZ:0.2
;MAXX:170.796
;MAXY:170.8
;MAXZ:22
;TARGET_MACHINE.NAME:Creality Ender-3 Pro
;Generated with Cura_SteamEngine 5.8.1
M82 ;absolute extrusion mode
; Ender 3 Custom Start G-code
G92 E0 ; Reset Extruder
G28 ; Home all axes
G1 Z5.0 F3000 ; Move Z Axis up a bit during heating to not damage bed
M104 S175 ; Start heating up the nozzle most of the way
M190 S60 ; Start heating the bed, wait until target temperature reached
M109 S200 ; Finish heating the nozzle
G1 Z2.0 F3000 ; Move Z Axis up little to prevent scratching of Heat Bed
G1 X0.1 Y20 Z0.3 F5000.0 ; Move to start position
G1 X0.1 Y200.0 Z0.3 F1500.0 E15 ; Draw the first line
G1 X0.4 Y200.0 Z0.3 F5000.0 ; Move to side a little
G1 X0.4 Y20 Z0.3 F1500.0 E30 ; Draw the second line
G92 E0 ; Reset Extruder
G1 Z2.0 F3000 ; Move Z Axis up little to prevent scratching of Heat Bed
G1 X5 Y20 Z0.3 F5000.0 ; Move over to prevent blob squish
G92 E0
G92 E0
G1 F1500 E-6.5
;LAYER_COUNT:110
;LAYER:0
M107
;MESH:tampa.stl
G0 F6000 X110 Y141.999 Z0.2
;TYPE:WALL-INNER
G1 F1500 E0
G1 F1200 X109.967 Y142 E0.0011
G1 X107.961 Y141.932 E0.06786
G1 X106.013 Y141.748 E0.13294
G1 X104.031 Y141.436 E0.19967
G1 X102.014 Y140.985 E0.26841
G1 X100.072 Y140.421 E0.33567
G1 X98.194 Y139.742 E0.40209
G1 X96.346 Y138.94 E0.46909
G1 X94.555 Y138.026 E0.53597
G1 X92.875 Y137.034 E0.60086
G1 X91.191 Y135.889 E0.66859
G1 X89.602 Y134.655 E0.73551
G1 X88.083 Y133.318 E0.80281
G1 X86.678 Y131.913 E0.8689
G1 X85.341 Y130.394 E0.93621
G1 X84.102 Y128.8 E1.00335
G1 X82.968 Y127.123 E1.07069
G1 X81.94 Y125.389 E1.13773
G1 X81.056 Y123.649 E1.20265
G1 X80.231 Y121.74 E1.27182
G1 X79.575 Y119.924 E1.33604
G1 X78.996 Y117.923 E1.40532
G1 X78.56 Y115.969 E1.47191
G1 X78.248 Y113.982 E1.53881
G1 X78.06 Y111.967 E1.60612
G1 X78 Y109.969 E1.6726
G1 X78.064 Y107.97 E1.73912
G1 X78.248 Y106.01 E1.8046
G1 X78.572 Y103.96 E1.87363
G1 X79.011 Y102.012 E1.94004
G1 X79.559 Y100.128 E2.0053
G1 X80.254 Y98.199 E2.0735
G1 X81.056 Y96.346 E2.14065
G1 X81.94 Y94.61 E2.20545
G1 X82.967 Y92.874 E2.27254
G1 X84.102 Y91.196 E2.33991
G1 X85.341 Y89.602 E2.40706
G1 X86.678 Y88.083 E2.47437
G1 X88.083 Y86.678 E2.54045
G1 X89.602 Y85.341 E2.60776
G1 X91.192 Y84.106 E2.67472
G1 X92.874 Y82.967 E2.74229
G1 X94.61 Y81.94 E2.80937
G1 X96.346 Y81.056 E2.87417
G1 X98.256 Y80.231 E2.94337
G1 X100.072 Y79.575 E3.00759
G1 X102.073 Y78.996 E3.07687
G1 X104.031 Y78.56 E3.14359
G1 X106.013 Y78.248 E3.21032
G1 X108.025 Y78.06 E3.27753
G1 X110.031 Y78 E3.34428
G1 X112.035 Y78.064 E3.41097
G1 X113.983 Y78.248 E3.47605
G1 X115.969 Y78.56 E3.54291
G1 X117.982 Y79.011 E3.61153
G1 X119.924 Y79.575 E3.67879
G1 X121.74 Y80.231 E3.74301
G1 X123.649 Y81.056 E3.81218
G1 X125.447 Y81.972 E3.87929
G1 X127.174 Y83 E3.94614
G1 X128.804 Y84.106 E4.01165
G1 X130.394 Y85.341 E4.07862
G1 X131.913 Y86.678 E4.14592
G1 X133.318 Y88.083 E4.21201
G1 X134.655 Y89.602 E4.27931
G1 X135.893 Y91.195 E4.34641
G1 X137.034 Y92.875 E4.41396
G1 X138.026 Y94.555 E4.47885
G1 X138.967 Y96.403 E4.54783
G1 X139.765 Y98.255 E4.6149
G1 X140.421 Y100.067 E4.67899
G1 X141 Y102.072 E4.74841
G1 X141.424 Y103.96 E4.81276
G1 X141.748 Y106.008 E4.88173
G1 X141.936 Y107.968 E4.94722
G1 X142 Y110.031 E5.01587
G1 X141.936 Y112.032 E5.08245
G1 X141.748 Y113.984 E5.14768
G1 X141.434 Y115.985 E5.21505
G1 X140.985 Y117.982 E5.28312
G1 X140.421 Y119.924 E5.35038
G1 X139.765 Y121.74 E5.41461
G1 X138.967 Y123.593 E5.48171
G1 X138.025 Y125.446 E5.55085
G1 X137.033 Y127.122 E5.61562
G1 X135.893 Y128.801 E5.68312
G1 X134.655 Y130.394 E5.75022
G1 X133.318 Y131.913 E5.81753
G1 X131.913 Y133.318 E5.88362
G1 X130.394 Y134.655 E5.95092
G1 X128.805 Y135.889 E6.01784
G1 X127.122 Y137.033 E6.08552
G1 X125.446 Y138.025 E6.1503
G1 X123.594 Y138.966 E6.21939
G1 X121.744 Y139.765 E6.28642
G1 X119.924 Y140.421 E6.35076
G1 X117.923 Y141 E6.42004
G1 X115.969 Y141.436 E6.48663
G1 X113.983 Y141.748 E6.5535
G1 X111.973 Y141.936 E6.62064
G1 X110 Y141.999 E6.6863
G0 F6000 X110 Y141.599
G1 F1200 X109.98 Y141.6 E6.68696
G1 X107.999 Y141.534 E6.75289
G1 X106.051 Y141.35 E6.81797
G1 X104.057 Y141.034 E6.88512
G1 X102.125 Y140.601 E6.95097
G1 X100.245 Y140.057 E7.01606
G1 X98.353 Y139.375 E7.08296
G1 X96.527 Y138.583 E7.14915
G1 X94.758 Y137.681 E7.2152
G1 X93.078 Y136.689 E7.28009
G1 X91.426 Y135.566 E7.34653
G1 X89.843 Y134.335 E7.41323
G1 X88.343 Y133.013 E7.47973
G1 X86.957 Y131.625 E7.54497
G1 X85.638 Y130.125 E7.6114
G1 X84.426 Y128.565 E7.67711
G1 X83.331 Y126.949 E7.74203
G1 X82.297 Y125.208 E7.80938
G1 X81.397 Y123.434 E7.87554
G1 X80.607 Y121.604 E7.94184
G1 X79.939 Y119.751 E8.00735
G1 X79.386 Y117.836 E8.07365
G1 X78.962 Y115.944 E8.13814
G1 X78.646 Y113.945 E8.20545
G1 X78.462 Y111.993 E8.27066
G1 X78.4 Y109.981 E8.33761
G1 X78.462 Y108.007 E8.4033
G1 X78.646 Y106.047 E8.46878
G1 X78.962 Y104.048 E8.53609
G1 X79.395 Y102.124 E8.60168
G1 X79.943 Y100.24 E8.66694
G1 X80.607 Y98.392 E8.73225
G1 X81.413 Y96.527 E8.79983
G1 X82.315 Y94.758 E8.86587
G1 X83.311 Y93.078 E8.93083
G1 X84.438 Y91.415 E8.99765
G1 X85.661 Y89.843 E9.06389
G1 X86.983 Y88.343 E9.13039
G1 X88.371 Y86.957 E9.19563
G1 X89.871 Y85.638 E9.26207
G1 X91.427 Y84.43 E9.32759
G1 X93.078 Y83.311 E9.39392
G1 X94.791 Y82.297 E9.46013
G1 X96.527 Y81.413 E9.52493
G1 X98.392 Y80.607 E9.5925
G1 X100.245 Y79.939 E9.65802
G1 X102.125 Y79.395 E9.72311
G1 X104.094 Y78.955 E9.79021
G1 X106.051 Y78.646 E9.85611
G1 X107.999 Y78.462 E9.92119
G1 X110.019 Y78.4 E9.98841
G1 X111.997 Y78.462 E10.05423
G1 X113.945 Y78.646 E10.11931
G1 X115.944 Y78.962 E10.18662
G1 X117.871 Y79.395 E10.25231
G1 X119.788 Y79.951 E10.3187
G1 X121.604 Y80.607 E10.38292
G1 X123.468 Y81.413 E10.45046
G1 X125.243 Y82.316 E10.5167
G1 X126.949 Y83.331 E10.58272
G1 X128.585 Y84.442 E10.6485
G1 X130.153 Y85.661 E10.71456
G1 X131.653 Y86.983 E10.78106
G1 X133.039 Y88.371 E10.8463
G1 X134.358 Y89.871 E10.91273
G1 X135.57 Y91.43 E10.97841
G1 X136.669 Y93.046 E11.04341
G1 X137.699 Y94.791 E11.11081
G1 X138.583 Y96.527 E11.1756
G1 X139.389 Y98.391 E11.24315
G1 X140.045 Y100.203 E11.30724
G1 X140.61 Y102.16 E11.37499
G1 X141.034 Y104.048 E11.43935
G1 X141.35 Y106.046 E11.50663
G1 X141.538 Y108.006 E11.57212
G1 X141.6 Y110.019 E11.6391
G1 X141.538 Y111.994 E11.70482
G1 X141.35 Y113.946 E11.77005
G1 X141.04 Y115.916 E11.83638
G1 X140.601 Y117.871 E11.90302
G1 X140.045 Y119.788 E11.96941
G1 X139.389 Y121.604 E12.03363
G1 X138.583 Y123.468 E12.10117
G1 X137.681 Y125.242 E12.16736
G1 X136.669 Y126.95 E12.2334
G1 X135.57 Y128.566 E12.2984
G1 X134.335 Y130.153 E12.36528
G1 X133.013 Y131.653 E12.43178
G1 X131.625 Y133.039 E12.49702
G1 X130.125 Y134.358 E12.56345
G1 X128.57 Y135.566 E12.62895
G1 X126.918 Y136.689 E12.69539
G1 X125.242 Y137.681 E12.76016
G1 X123.435 Y138.599 E12.82757
G1 X121.608 Y139.389 E12.89378
G1 X119.751 Y140.057 E12.95942
G1 X117.836 Y140.61 E13.02571
G1 X115.944 Y141.034 E13.0902
G1 X113.945 Y141.35 E13.15751
G1 X111.997 Y141.534 E13.22259
G1 X110 Y141.599 E13.28905
G1 F1500 E6.78905
G0 F6000 X109.99 Y141.898
G0 X109.96 Y142.18
G0 X109.958 Y169.251
G0 X110 Y169.431
G1 F1500 E13.28905
G1 F1200 X169.432 Y169.432 E15.26577
G1 X169.432 Y50.564 E19.21933
G1 X50.564 Y50.564 E23.1729
G1 X50.565 Y169.431 E27.12643
G1 X110 Y169.431 E29.10325
G0 F6000 X110 Y169.831
G1 F1200 X169.832 Y169.832 E31.09327
G1 X169.832 Y50.164 E35.07344
G1 X50.164 Y50.164 E39.05361
G1 X50.165 Y169.831 E43.03375
G1 X110 Y169.831 E45.02387
G0 F6000 X110 Y170.232
;TYPE:WALL-OUTER
G1 F1200 X170.001 Y170.232 E47.01952
G1 X170.111 Y170.201 E47.02332
G1 X170.232 Y170.045 E47.02988
G1 X170.232 Y50 E51.0226
G1 X170.159 Y49.831 E51.02872
G1 X170.045 Y49.764 E51.03312
G1 X49.999 Y49.764 E55.02586
G1 X49.895 Y49.792 E55.02945
G1 X49.798 Y49.887 E55.03396
G1 X49.764 Y49.998 E55.03782
G1 X49.765 Y169.999 E59.02907
G1 X49.795 Y170.104 E59.0327
G1 X49.888 Y170.199 E59.03713
G1 X49.997 Y170.231 E59.0409
G1 X110 Y170.232 E61.03661
G1 F1500 E54.53661
G0 F6000 X110 Y169.535
G0 X109.976 Y169.251
G0 X109.96 Y142.18
G0 X109.978 Y141.898
G0 X110 Y141.2
G1 F1500 E61.03661
G1 F1200 X109.993 Y141.2 E61.03684
G1 X108.037 Y141.136 E61.10194
G1 X106.076 Y140.95 E61.16745
G1 X104.144 Y140.644 E61.23251
G1 X102.236 Y140.217 E61.29754
G1 X100.356 Y139.673 E61.36264
G1 X98.512 Y139.008 E61.42783
G1 X96.709 Y138.227 E61.49319
G1 X94.962 Y137.337 E61.5584
G1 X93.271 Y136.338 E61.62372
G1 X91.657 Y135.238 E61.68869
G1 X90.107 Y134.035 E61.75394
G1 X88.635 Y132.739 E61.81918
G1 X87.257 Y131.361 E61.88399
G1 X85.957 Y129.884 E61.94944
G1 X84.746 Y128.325 E62.01509
G1 X83.656 Y126.715 E62.07976
G1 X82.653 Y125.027 E62.14507
G1 X81.764 Y123.276 E62.21038
G1 X80.983 Y121.468 E62.27589
G1 X80.323 Y119.64 E62.34053
G1 X79.776 Y117.748 E62.40603
G1 X79.35 Y115.844 E62.47093
G1 X79.044 Y113.907 E62.53615
G1 X78.86 Y111.955 E62.60136
G1 X78.8 Y109.993 E62.66665
G1 X78.86 Y108.045 E62.73147
G1 X79.046 Y106.072 E62.79738
G1 X79.352 Y104.136 E62.86257
G1 X79.779 Y102.236 E62.92734
G1 X80.331 Y100.34 E62.99302
G1 X80.988 Y98.516 E63.05751
G1 X81.769 Y96.709 E63.12298
G1 X82.659 Y94.962 E63.18819
G1 X83.662 Y93.271 E63.25358
G1 X84.754 Y91.661 E63.31829
G1 X85.961 Y90.107 E63.38373
G1 X87.257 Y88.635 E63.44896
G1 X88.635 Y87.257 E63.51378
G1 X90.112 Y85.957 E63.57922
G1 X91.667 Y84.75 E63.6447
G1 X93.282 Y83.655 E63.70959
G1 X94.973 Y82.653 E63.77497
G1 X96.72 Y81.764 E63.84016
G1 X98.528 Y80.983 E63.90567
G1 X100.356 Y80.323 E63.97031
G1 X102.248 Y79.776 E64.03582
G1 X104.156 Y79.35 E64.10084
G1 X106.089 Y79.044 E64.16593
G1 X108.037 Y78.86 E64.23101
G1 X110.007 Y78.8 E64.29656
G1 X111.959 Y78.86 E64.36152
G1 X113.92 Y79.046 E64.42703
G1 X115.856 Y79.352 E64.49222
G1 X117.76 Y79.779 E64.55712
G1 X119.652 Y80.327 E64.62264
G1 X121.48 Y80.988 E64.68729
G1 X123.287 Y81.769 E64.75277
G1 X125.039 Y82.66 E64.81814
G1 X126.725 Y83.662 E64.88337
G1 X128.339 Y84.758 E64.94826
G1 X129.889 Y85.961 E65.01352
G1 X131.361 Y87.257 E65.07875
G1 X132.739 Y88.635 E65.14357
G1 X134.039 Y90.112 E65.20901
G1 X135.25 Y91.671 E65.27467
G1 X136.345 Y93.282 E65.33946
G1 X137.343 Y94.973 E65.40476
G1 X138.232 Y96.72 E65.46996
G1 X139.013 Y98.527 E65.53543
G1 X139.673 Y100.352 E65.59998
G1 X140.22 Y102.248 E65.66562
G1 X140.646 Y104.148 E65.73038
G1 X140.952 Y106.084 E65.79557
G1 X141.14 Y108.044 E65.86106
G1 X141.2 Y110.007 E65.92638
G1 X141.14 Y111.956 E65.99123
G1 X140.95 Y113.92 E66.05686
G1 X140.644 Y115.856 E66.12205
G1 X140.217 Y117.76 E66.18695
G1 X139.669 Y119.652 E66.25247
G1 X139.008 Y121.48 E66.31712
G1 X138.227 Y123.287 E66.38259
G1 X137.337 Y125.038 E66.44792
G1 X136.338 Y126.725 E66.51313
G1 X135.242 Y128.335 E66.57791
G1 X134.035 Y129.889 E66.64336
G1 X132.739 Y131.361 E66.70859
G1 X131.361 Y132.739 E66.77341
G1 X129.884 Y134.039 E66.83885
G1 X128.329 Y135.246 E66.90432
G1 X126.714 Y136.345 E66.96929
G1 X125.027 Y137.343 E67.03449
G1 X123.276 Y138.232 E67.0998
G1 X121.472 Y139.013 E67.16518
G1 X119.64 Y139.673 E67.22995
G1 X117.748 Y140.22 E67.29545
G1 X115.844 Y140.646 E67.36035
G1 X113.907 Y140.952 E67.42557
G1 X111.959 Y141.136 E67.49065
G1 X110 Y141.2 E67.55584
G1 F1500 E61.05584
G0 F6000 X109.978 Y141.898
G0 X109.96 Y142.18
G0 X109.958 Y169.251
G0 X110 Y169.07
;TYPE:SKIN
G1 F1500 E67.55584
G1 F1200 X50.924 Y169.068 E69.52072
G1 X50.924 Y50.924 E73.4502
G1 X169.072 Y50.924 E77.37982
G1 X169.072 Y169.072 E81.30944
G1 X110 Y169.07 E83.27418
G1 F1500 E76.77418
G0 F6000 X109.999 Y169.331
G0 X109.96 Y142.18
G0 X110 Y142.359
G1 F1500 E83.27418
G1 F1200 X111.987 Y142.296 E83.3403
G1 X114.095 Y142.096 E83.41073
G1 X116.028 Y141.79 E83.47582
G1 X118.068 Y141.332 E83.54536
G1 X119.944 Y140.793 E83.61028
G1 X121.928 Y140.077 E83.68044
G1 X123.744 Y139.292 E83.74624
G1 X125.567 Y138.367 E83.81423
G1 X127.31 Y137.337 E83.88157
G1 X128.989 Y136.202 E83.94898
G1 X130.64 Y134.914 E84.01862
G1 X132.165 Y133.575 E84.08612
G1 X133.55 Y132.19 E84.15127
G1 X134.902 Y130.661 E84.21915
G1 X136.194 Y128.999 E84.28917
G1 X137.302 Y127.369 E84.35472
G1 X138.325 Y125.647 E84.42134
G1 X139.259 Y123.811 E84.48985
G1 X140.076 Y121.928 E84.55812
G1 X140.765 Y120.029 E84.62531
G1 X141.329 Y118.08 E84.6928
G1 X141.784 Y116.06 E84.76166
G1 X142.098 Y114.092 E84.82795
G1 X142.292 Y112.076 E84.89531
G1 X142.36 Y110.036 E84.9632
G1 X142.3 Y107.996 E85.03108
G1 X142.1 Y105.908 E85.10084
G1 X141.79 Y103.956 E85.16658
G1 X141.348 Y101.984 E85.2338
G1 X140.765 Y99.96 E85.30385
G1 X140.104 Y98.139 E85.36829
G1 X139.264 Y96.188 E85.43894
G1 X138.363 Y94.417 E85.50502
G1 X137.349 Y92.698 E85.5714
G1 X136.206 Y91.011 E85.63918
G1 X134.914 Y89.349 E85.7092
G1 X133.606 Y87.867 E85.77494
G1 X132.162 Y86.418 E85.84298
G1 X130.653 Y85.086 E85.90992
G1 X129.031 Y83.826 E85.97824
G1 X127.369 Y82.694 E86.04512
G1 X125.651 Y81.668 E86.11168
G1 X123.811 Y80.733 E86.18032
G1 X121.932 Y79.92 E86.24842
G1 X120.016 Y79.223 E86.31623
G1 X118.08 Y78.663 E86.38326
G1 X116.04 Y78.204 E86.45281
G1 X114.108 Y77.898 E86.51787
G1 X111.987 Y77.7 E86.58872
G1 X110.043 Y77.64 E86.65341
G1 X108.005 Y77.7 E86.72122
G1 X105.901 Y77.896 E86.7915
G1 X103.968 Y78.202 E86.85659
G1 X101.992 Y78.64 E86.92391
G1 X100.048 Y79.203 E86.99123
G1 X98.124 Y79.891 E87.05919
G1 X96.188 Y80.732 E87.12939
G1 X94.429 Y81.625 E87.195
G1 X92.625 Y82.696 E87.26478
G1 X91.035 Y83.77 E87.3286
G1 X89.352 Y85.077 E87.39947
G1 X87.831 Y86.417 E87.4669
G1 X86.417 Y87.831 E87.53341
G1 X85.085 Y89.343 E87.60043
G1 X83.818 Y90.973 E87.66909
G1 X82.706 Y92.607 E87.73483
G1 X81.657 Y94.372 E87.80312
G1 X80.733 Y96.18 E87.87065
G1 X79.896 Y98.112 E87.94068
G1 X79.231 Y99.964 E88.00613
G1 X78.66 Y101.92 E88.0739
G1 X78.208 Y103.944 E88.14288
G1 X77.898 Y105.876 E88.20796
G1 X77.696 Y108.021 E88.27962
G1 X77.64 Y109.954 E88.34394
G1 X77.696 Y111.975 E88.41118
G1 X77.896 Y114.095 E88.48201
G1 X78.202 Y116.028 E88.5471
G1 X78.66 Y118.068 E88.61664
G1 X79.203 Y119.948 E88.68172
G1 X79.891 Y121.864 E88.74943
G1 X80.7 Y123.74 E88.81738
G1 X81.665 Y125.639 E88.88823
G1 X82.688 Y127.359 E88.95479
G1 X83.77 Y128.957 E89.01898
G1 X85.077 Y130.64 E89.08985
G1 X86.417 Y132.161 E89.15728
G1 X87.831 Y133.575 E89.22379
G1 X89.343 Y134.907 E89.29081
G1 X90.997 Y136.194 E89.36051
G1 X92.679 Y137.334 E89.42809
G1 X94.354 Y138.325 E89.49282
G1 X96.176 Y139.259 E89.56092
G1 X98.056 Y140.072 E89.62905
G1 X100.035 Y140.789 E89.69906
G1 X101.98 Y141.349 E89.76637
G1 X103.884 Y141.772 E89.83125
G1 X105.888 Y142.094 E89.89875
G1 X108.005 Y142.296 E89.96949
G1 X109.953 Y142.36 E90.03431
G1 X110 Y142.359 E90.03588
G1 F1500 E83.53588
G0 F6000 X109.993 Y142.099
G0 X108.017 Y142.117
G0 X108.015 Y169.251
G0 X51.205 Y169.331
G0 X51.206 Y168.868
G1 F1500 E90.03588
G1 F1200 X51.124 Y168.786 E90.03973
G0 F6000 X51.124 Y168.221
G1 F1200 X51.772 Y168.868 E90.07019
G0 F6000 X52.337 Y168.868
G1 F1200 X51.124 Y167.655 E90.12724
G0 F6000 X51.124 Y167.089
G1 F1200 X52.903 Y168.868 E90.21092
G0 F6000 X53.469 Y168.868
G1 F1200 X51.124 Y166.524 E90.3212
G0 F6000 X51.124 Y165.958
G1 F1200 X54.034 Y168.868 E90.45808
G0 F6000 X54.6 Y168.868
G1 F1200 X51.124 Y165.392 E90.62158
G0 F6000 X51.124 Y164.827
G1 F1200 X55.166 Y168.868 E90.81168
G0 F6000 X55.731 Y168.868
G1 F1200 X51.124 Y164.261 E91.02838
G0 F6000 X51.124 Y163.695
G1 F1200 X56.297 Y168.868 E91.2717
G0 F6000 X56.863 Y168.868
G1 F1200 X51.124 Y163.13 E91.54162
G0 F6000 X51.124 Y162.564
G1 F1200 X57.428 Y168.868 E91.83814
G0 F6000 X57.994 Y168.868
G1 F1200 X51.124 Y161.998 E92.16129
G0 F6000 X51.124 Y161.432
G1 F1200 X58.56 Y168.868 E92.51105
G0 F6000 X59.125 Y168.868
G1 F1200 X51.124 Y160.867 E92.8874
G0 F6000 X51.124 Y160.301
G1 F1200 X59.691 Y168.868 E93.29036
G0 F6000 X60.257 Y168.868
G1 F1200 X51.124 Y159.735 E93.71995
G0 F6000 X51.124 Y159.17
G1 F1200 X60.822 Y168.868 E94.17611
G0 F6000 X61.388 Y168.868
G1 F1200 X51.124 Y158.604 E94.6589
G0 F6000 X51.124 Y158.038
G1 F1200 X61.954 Y168.868 E95.16831
G0 F6000 X62.52 Y168.868
G1 F1200 X51.124 Y157.473 E95.70432
G0 F6000 X51.124 Y156.907
G1 F1200 X63.085 Y168.868 E96.26693
G0 F6000 X63.651 Y168.868
