;FLAVOR:Marlin
;TIME:20045
;Filament used: 31.6054m
;Layer height: 0.2
;MINX:37.884
;MINY:37.884
;MINZ:0.3
;MAXX:172.116
;MAXY:172.116
;MAXZ:21.975
;TARGET_MACHINE.NAME:Anycubic i3 Mega S/Pro
;Generated with Cura_SteamEngine 5.8.1
M82 ;absolute extrusion mode
;Profil Homepage: https://github.com/NilsRo/Cura_Anycubic_MegaS_Profile

;Slicer Information - (Support for OctoPrint Slicer Estimator)
;Slicer info:material_guid;0ff92885-617b-4144-a03c-9989872454bc
;Slicer info:material_id;generic_pla_175
;Slicer info:material_brand;Generic
;Slicer info:material_name;PLA
;Slicer info:filament_cost;[0.0]
;Slicer info:material_bed_temperature;60
;Slicer info:material_bed_temperature_layer_0;60
;Slicer info:material_print_temperature;200
;Slicer info:material_print_temperature_layer_0;205
;Slicer info:material_flow;100
;Slicer info:layer_height;0.2
;Slicer info:machine_nozzle_size;0.4
;Slicer info:wall_thickness;0.8
;Slicer info:speed_print;50.0
;Slicer info:speed_topbottom;25.0
;Slicer info:travel_speed;100.0
;Slicer info:support;0
;Slicer info:retraction_speed;30
;Slicer info:retraction_amount;6
;Slicer info:layer_height;0.2
;Slicer info:infill_pattern;cubic
;Slicer info:infill_sparse_density;20.0
;Slicer info:cool_fan_enabled;True
;Slicer info:cool_fan_speed;100
;Slicer info:sliced_at;Sun 22-12-2024 19:20:16
G21                                        ; metric values 
G90                                        ; absolute positioning 
M82                                        ; set extruder to absolute mode 
M900 K0                                    ; disable lin. adv. if not set in GCODE
M107                                       ; start with the fan off 
M140 S60   ; Start heating the bed 
G4 S60                                     ; wait 1 minute 
M104 S205 ; start heating the hot end 
M190 S60   ; wait for bed 
M109 S205 ; wait for hotend 
M300 S1000 P500                            ; BEEP heating done 
G28 X0 Y10 Z0                              ; move X/Y to min endstops 
M420 S1                                    ; Enable leveling 
M420 Z2.0                                  ; Set leveling fading height to 2 mm 
G0 Z0.15                                   ; lift nozzle a bit 
G92 E0                                     ; zero the extruded length 
G1 X50 E20 F500                            ; Extrude 20mm of filament in a 5cm line. 
G92 E0                                     ; zero the extruded length again 
G1 E-2 F500                                ; Retract a little 
G1 X50 F500                                ; wipe away from the filament line
G1 X100 F9000                              ; Quickly wipe away from the filament line
G92 E0
G92 E0
G1 F1800 E-6
;LAYER_COUNT:109
;LAYER:0
M106 S76.5
M205 X10 Y10
G1 F480 Z0.375
G0 F6000 X40.092 Y39.908 Z0.375
M205 X8 Y8
;TYPE:SKIRT
G1 F480 Z0.3
G1 F1800 E0
G1 F1200 X40.686 Y39.368 E0.0801
G1 X41.302 Y38.933 E0.15535
G1 X41.967 Y38.576 E0.23066
G1 X42.746 Y38.267 E0.31428
G1 X43.698 Y38.014 E0.41257
G1 X44.704 Y37.908 E0.5135
G1 X45.722 Y37.889 E0.61509
G1 X164.36 Y37.884 E12.45284
G1 X165.19 Y37.897 E12.53567
G1 X165.94 Y37.959 E12.61076
G1 X166.839 Y38.142 E12.7023
G1 X167.634 Y38.401 E12.78573
G1 X168.407 Y38.762 E12.87086
G1 X169.01 Y39.14 E12.94187
G1 X169.663 Y39.683 E13.02661
G1 X170.132 Y40.134 E13.09153
G1 X170.576 Y40.618 E13.15707
G1 X171.072 Y41.311 E13.2421
G1 X171.427 Y41.975 E13.31723
G1 X171.732 Y42.743 E13.39969
G1 X171.985 Y43.693 E13.49778
G1 X172.092 Y44.702 E13.59903
G1 X172.111 Y45.71 E13.69962
G1 X172.116 Y164.343 E25.53687
G1 X172.103 Y165.188 E25.62119
G1 X172.041 Y165.938 E25.69629
G1 X171.858 Y166.838 E25.78793
G1 X171.599 Y167.634 E25.87145
G1 X171.238 Y168.407 E25.95658
G1 X170.889 Y168.964 E26.02216
G1 X170.284 Y169.701 E26.1173
G1 X169.907 Y170.093 E26.17157
G1 X169.313 Y170.633 E26.25167
G1 X168.697 Y171.068 E26.32692
G1 X168.031 Y171.425 E26.40232
G1 X167.154 Y171.766 E26.49621
G1 X166.298 Y171.987 E26.58442
G1 X165.297 Y172.092 E26.68485
G1 X164.284 Y172.11 E26.78594
G1 X45.64 Y172.116 E38.62429
G1 X44.81 Y172.103 E38.70711
G1 X44.06 Y172.041 E38.78221
G1 X43.161 Y171.858 E38.87375
G1 X42.366 Y171.599 E38.95718
G1 X41.593 Y171.238 E39.0423
G1 X40.99 Y170.86 E39.11332
G1 X40.337 Y170.317 E39.19806
G1 X39.868 Y169.866 E39.26298
G1 X39.424 Y169.382 E39.32852
G1 X38.928 Y168.689 E39.41355
G1 X38.573 Y168.025 E39.48868
G1 X38.268 Y167.257 E39.57113
G1 X38.015 Y166.307 E39.66923
G1 X37.908 Y165.294 E39.77087
G1 X37.889 Y164.253 E39.87476
G1 X37.884 Y45.618 E51.7122
G1 X37.897 Y44.808 E51.79304
G1 X37.959 Y44.057 E51.86823
G1 X38.119 Y43.252 E51.95012
G1 X38.401 Y42.367 E52.0428
G1 X38.762 Y41.593 E52.12802
G1 X39.111 Y41.036 E52.1936
G1 X39.716 Y40.299 E52.28875
G1 X40.092 Y39.908 E52.34287
M205 X10 Y10
G0 F6000 X40.669 Y40.463
M205 X8 Y8
G1 F1200 X41.152 Y40.018 E52.4084
G1 X41.686 Y39.635 E52.47397
G1 X42.262 Y39.32 E52.53948
G1 X43.041 Y39.011 E52.6231
G1 X43.839 Y38.804 E52.70536
G1 X44.788 Y38.704 E52.80058
G1 X45.722 Y38.689 E52.89378
G1 X164.349 Y38.684 E64.73043
G1 X165.13 Y38.695 E64.80837
G1 X165.785 Y38.744 E64.87391
G1 X166.591 Y38.903 E64.95588
G1 X167.386 Y39.162 E65.03931
G1 X167.982 Y39.44 E65.10493
G1 X168.539 Y39.789 E65.17052
G1 X169.151 Y40.298 E65.24994
G1 X169.542 Y40.675 E65.30414
G1 X169.986 Y41.159 E65.36967
G1 X170.369 Y41.693 E65.43525
G1 X170.683 Y42.27 E65.50079
G1 X170.988 Y43.038 E65.58324
G1 X171.195 Y43.834 E65.66531
G1 X171.296 Y44.786 E65.76084
G1 X171.311 Y45.71 E65.85305
G1 X171.316 Y164.332 E77.6892
G1 X171.305 Y165.128 E77.76863
G1 X171.256 Y165.783 E77.83417
G1 X171.097 Y166.59 E77.91624
G1 X170.838 Y167.386 E77.99976
G1 X170.56 Y167.982 E78.06538
G1 X170.211 Y168.539 E78.13097
G1 X169.707 Y169.146 E78.20969
G1 X169.33 Y169.538 E78.26396
G1 X168.847 Y169.983 E78.32949
G1 X168.313 Y170.366 E78.39506
G1 X167.737 Y170.681 E78.46057
G1 X166.954 Y170.991 E78.5446
G1 X166.156 Y171.197 E78.62683
G1 X165.213 Y171.296 E78.72144
G1 X164.278 Y171.311 E78.81475
G1 X45.651 Y171.316 E90.6514
G1 X44.87 Y171.305 E90.72933
G1 X44.215 Y171.256 E90.79487
G1 X43.409 Y171.097 E90.87685
G1 X42.614 Y170.838 E90.96027
G1 X42.018 Y170.56 E91.02589
G1 X41.461 Y170.211 E91.09148
G1 X40.849 Y169.702 E91.17091
G1 X40.458 Y169.325 E91.2251
G1 X40.014 Y168.841 E91.29064
G1 X39.631 Y168.307 E91.35621
G1 X39.317 Y167.73 E91.42176
G1 X39.012 Y166.962 E91.50421
G1 X38.805 Y166.166 E91.58628
G1 X38.704 Y165.21 E91.6822
G1 X38.689 Y164.253 E91.7777
G1 X38.684 Y45.63 E103.61395
G1 X38.695 Y44.868 E103.68999
G1 X38.744 Y44.213 E103.75553
G1 X38.904 Y43.408 E103.83742
G1 X39.162 Y42.614 E103.92073
G1 X39.44 Y42.018 E103.98635
G1 X39.789 Y41.461 E104.05193
G1 X40.293 Y40.854 E104.13066
G1 X40.669 Y40.463 E104.18478
M205 X10 Y10
G1 F1800 E98.18478
G1 F480 Z0.375
;MESH:tampa.stl
G0 F6000 X105 Y137 Z0.375
M205 X8 Y8
;TYPE:WALL-INNER
G1 F480 Z0.3
G1 F1800 E104.18478
G1 F1200 X102.92 Y136.931 E104.39244
G1 X100.937 Y136.737 E104.59125
G1 X98.949 Y136.424 E104.79206
G1 X96.978 Y135.977 E104.99372
G1 X95.052 Y135.414 E105.19394
G1 X93.268 Y134.77 E105.38319
G1 X91.318 Y133.926 E105.5952
G1 X89.534 Y133.011 E105.79526
G1 X87.902 Y132.047 E105.98439
G1 X86.139 Y130.851 E106.19696
G1 X84.595 Y129.649 E106.3922
G1 X83.047 Y128.281 E106.59833
G1 X81.719 Y126.957 E106.78545
G1 X80.307 Y125.355 E106.99852
G1 X79.069 Y123.753 E107.20054
G1 X77.949 Y122.098 E107.39993
G1 X76.985 Y120.466 E107.58906
G1 X76.017 Y118.56 E107.80237
G1 X75.226 Y116.728 E108.00147
G1 X74.582 Y114.944 E108.19073
G1 X73.988 Y112.896 E108.4035
G1 X73.547 Y110.915 E108.606
G1 X73.259 Y109.059 E108.79341
G1 X73.056 Y106.948 E109.00502
G1 X73 Y104.944 E109.20506
G1 X73.056 Y103.048 E109.39432
G1 X73.259 Y100.937 E109.60593
G1 X73.572 Y98.947 E109.80693
G1 X73.988 Y97.103 E109.99555
G1 X74.582 Y95.052 E110.20861
G1 X75.272 Y93.152 E110.41031
G1 X76.069 Y91.324 E110.60929
G1 X76.985 Y89.534 E110.80993
G1 X77.949 Y87.902 E110.99905
G1 X79.145 Y86.139 E111.21163
G1 X80.347 Y84.595 E111.40687
G1 X81.717 Y83.045 E111.61328
G1 X83.137 Y81.631 E111.81324
G1 X84.643 Y80.309 E112.01319
G1 X86.139 Y79.145 E112.20232
G1 X87.902 Y77.949 E112.41489
G1 X89.642 Y76.926 E112.61629
G1 X91.433 Y76.016 E112.81675
G1 X93.268 Y75.226 E113.01609
G1 X95.052 Y74.582 E113.20534
G1 X97.097 Y73.988 E113.41783
G1 X99.081 Y73.547 E113.62062
G1 X100.937 Y73.259 E113.80803
G1 X103.052 Y73.056 E114.02004
G1 X105.06 Y73 E114.22047
G1 X106.948 Y73.056 E114.40894
G1 X109.059 Y73.259 E114.62055
G1 X111.047 Y73.572 E114.82136
G1 X113.018 Y74.019 E115.02302
G1 X114.944 Y74.582 E115.22324
G1 X116.728 Y75.226 E115.41249
G1 X118.676 Y76.069 E115.62428
G1 X120.466 Y76.985 E115.82492
G1 X122.205 Y78.017 E116.02669
G1 X123.855 Y79.143 E116.22601
G1 X125.355 Y80.307 E116.41546
G1 X126.957 Y81.719 E116.62853
G1 X128.324 Y83.091 E116.82178
G1 X129.649 Y84.595 E117.02179
G1 X130.851 Y86.139 E117.21703
G1 X132.047 Y87.902 E117.4296
G1 X133.069 Y89.64 E117.63078
G1 X133.929 Y91.32 E117.8191
G1 X134.77 Y93.268 E118.03081
G1 X135.453 Y95.172 E118.23264
G1 X136.008 Y97.094 E118.43226
G1 X136.449 Y99.081 E118.63535
G1 X136.737 Y100.937 E118.82275
G1 X136.931 Y102.915 E119.02107
G1 X137 Y104.992 E119.22843
G1 X136.931 Y107.081 E119.43698
G1 X136.737 Y109.059 E119.63529
G1 X136.443 Y110.954 E119.82664
G1 X135.978 Y113.013 E120.03726
G1 X135.414 Y114.944 E120.23799
G1 X134.77 Y116.728 E120.42724
G1 X133.93 Y118.674 E120.63873
G1 X133.011 Y120.466 E120.83968
G1 X131.979 Y122.205 E121.04145
G1 X130.853 Y123.855 E121.24077
G1 X129.65 Y125.404 E121.43647
G1 X128.279 Y126.955 E121.64302
G1 X126.863 Y128.365 E121.84241
G1 X125.355 Y129.689 E122.04264
G1 X123.753 Y130.927 E122.24466
G1 X122.098 Y132.047 E122.44406
G1 X120.466 Y133.011 E122.63319
G1 X118.676 Y133.927 E122.83382
G1 X116.728 Y134.77 E123.04561
G1 X114.944 Y135.414 E123.23486
G1 X112.899 Y136.008 E123.44735
G1 X110.915 Y136.449 E123.65014
G1 X109.059 Y136.737 E123.83755
G1 X107.081 Y136.931 E124.03587
G1 X105 Y137 E124.24362
M205 X10 Y10
G0 F6000 X104.961 Y136.2
M205 X8 Y8
G1 F1200 X102.996 Y136.135 E124.4398
G1 X101.128 Y135.955 E124.62705
G1 X99.124 Y135.643 E124.82942
G1 X97.201 Y135.209 E125.02612
G1 X95.324 Y134.661 E125.22123
G1 X93.471 Y133.99 E125.41787
G1 X91.751 Y133.246 E125.60486
G1 X89.941 Y132.322 E125.80764
G1 X88.246 Y131.318 E126.00421
G1 X86.631 Y130.22 E126.19907
G1 X85.106 Y129.033 E126.3919
G1 X83.639 Y127.74 E126.58702
G1 X82.257 Y126.363 E126.78168
G1 X80.963 Y124.894 E126.97701
G1 X79.731 Y123.303 E127.1778
G1 X78.658 Y121.723 E127.36837
G1 X77.674 Y120.059 E127.56126
G1 X76.751 Y118.242 E127.76461
G1 X76.006 Y116.526 E127.95128
G1 X75.311 Y114.599 E128.15568
G1 X74.787 Y112.791 E128.3435
G1 X74.338 Y110.793 E128.54784
G1 X74.041 Y108.868 E128.74219
G1 X73.856 Y106.924 E128.93704
G1 X73.8 Y104.968 E129.13229
G1 X73.861 Y102.992 E129.32955
G1 X74.041 Y101.128 E129.5164
G1 X74.353 Y99.123 E129.71887
G1 X74.769 Y97.279 E129.90749
G1 X75.335 Y95.324 E130.11057
G1 X76.006 Y93.47 E130.30731
G1 X76.782 Y91.687 E130.50133
G1 X77.674 Y89.941 E130.69697
G1 X78.678 Y88.246 E130.89354
G1 X79.776 Y86.631 E131.0884
G1 X80.963 Y85.106 E131.28123
G1 X82.257 Y83.638 E131.47649
G1 X83.638 Y82.257 E131.67136
G1 X85.106 Y80.963 E131.86662
G1 X86.694 Y79.73 E132.06723
G1 X88.309 Y78.638 E132.26175
G1 X89.941 Y77.674 E132.45088
G1 X91.751 Y76.75 E132.65366
G1 X93.471 Y76.006 E132.84065
G1 X95.397 Y75.311 E133.04495
G1 X97.201 Y74.787 E133.2324
G1 X99.203 Y74.338 E133.43712
G1 X101.128 Y74.041 E133.63147
G1 X103.076 Y73.856 E133.82672
G1 X105.036 Y73.8 E134.02237
G1 X107.004 Y73.861 E134.21883
G1 X108.868 Y74.041 E134.40568
G1 X110.872 Y74.353 E134.60805
G1 X112.795 Y74.787 E134.80476
G1 X114.672 Y75.335 E134.99986
G1 X116.525 Y76.006 E135.19651
G1 X118.313 Y76.782 E135.39099
G1 X120.059 Y77.674 E135.58663
G1 X121.723 Y78.658 E135.77952
G1 X123.334 Y79.753 E135.97388
G1 X124.894 Y80.963 E136.17087
G1 X126.363 Y82.257 E136.36621
G1 X127.74 Y83.639 E136.56087
G1 X129.033 Y85.106 E136.75599
G1 X130.266 Y86.694 E136.9566
G1 X131.358 Y88.309 E137.15112
G1 X132.322 Y89.941 E137.34025
G1 X133.25 Y91.756 E137.54365
G1 X134.017 Y93.54 E137.73742
G1 X134.685 Y95.396 E137.93424
G1 X135.209 Y97.196 E138.1213
G1 X135.658 Y99.203 E138.32651
G1 X135.955 Y101.128 E138.52086
G1 X136.14 Y103.069 E138.71541
G1 X136.2 Y105.03 E138.91117
G1 X136.135 Y107.004 E139.10824
G1 X135.955 Y108.868 E139.2951
G1 X135.655 Y110.816 E139.49176
G1 X135.209 Y112.791 E139.69379
G1 X134.661 Y114.672 E139.88928
G1 X133.99 Y116.524 E140.08583
G1 X133.217 Y118.31 E140.28001
G1 X132.322 Y120.059 E140.47605
G1 X131.338 Y121.723 E140.66894
G1 X130.243 Y123.334 E140.86331
G1 X129.033 Y124.894 E141.0603
G1 X127.739 Y126.362 E141.25556
G1 X126.362 Y127.739 E141.44987
G1 X124.894 Y129.033 E141.64513
G1 X123.303 Y130.265 E141.84591
G1 X121.723 Y131.338 E142.03648
G1 X119.993 Y132.358 E142.23687
G1 X118.245 Y133.246 E142.4325
G1 X116.525 Y133.99 E142.61949
G1 X114.599 Y134.685 E142.8238
G1 X112.795 Y135.209 E143.01124
G1 X110.793 Y135.658 E143.21597
G1 X108.868 Y135.955 E143.41032
G1 X106.927 Y136.14 E143.60487
G1 X104.961 Y136.2 E143.80113
M205 X10 Y10
G1 F1800 E137.80113
G1 F480 Z0.375
G0 F6000 X163.524 Y163.524 Z0.375
M205 X8 Y8
G1 F480 Z0.3
G1 F1800 E143.80113
G1 F1200 X163.524 Y46.472 E155.48062
G1 X46.472 Y46.472 E167.16012
G1 X46.472 Y163.524 E178.83961
G1 X163.524 Y163.524 E190.51911
M205 X10 Y10
G0 F6000 X164.324 Y164.324
M205 X8 Y8
G1 F1200 X164.324 Y45.672 E202.35826
G1 X45.672 Y45.672 E214.1974
G1 X45.672 Y164.324 E226.03654
G1 X164.324 Y164.324 E237.87569
M205 X10 Y10
G0 F6000 X164.996 Y165.124
M205 X8 Y8
;TYPE:WALL-OUTER
G1 F1200 X165.124 Y164.959 E237.89653
G1 X165.124 Y45 E249.86608
G1 X164.959 Y44.872 E249.88692
G1 X45 Y44.872 E261.85648
G1 X44.872 Y45.04 E261.87755
G1 X44.872 Y164.996 E273.84681
G1 X45.04 Y165.124 E273.86789
G1 X164.996 Y165.124 E285.83714
M205 X10 Y10
G0 F6000 X165.118 Y164.967
G1 F1800 E279.83714
G1 F480 Z0.375
G0 F6000 X104.987 Y135.4 Z0.375
M205 X8 Y8
G1 F480 Z0.3
G1 F1800 E285.83714
G1 F1200 X103.073 Y135.339 E286.02822
G1 X101.182 Y135.156 E286.21779
G1 X99.3 Y134.863 E286.40784
G1 X97.424 Y134.441 E286.5997
G1 X95.596 Y133.909 E286.78967
G1 X93.789 Y133.256 E286.98138
G1 X92.046 Y132.501 E287.17091
G1 X90.348 Y131.633 E287.36119
G1 X88.695 Y130.656 E287.55279
G1 X87.132 Y129.596 E287.74123
G1 X85.607 Y128.409 E287.93405
G1 X84.177 Y127.148 E288.12429
G1 X82.831 Y125.805 E288.31401
G1 X81.571 Y124.374 E288.50426
G1 X80.4 Y122.864 E288.69493
G1 X79.327 Y121.284 E288.8855
G1 X78.351 Y119.63 E289.07713
G1 X77.495 Y117.946 E289.26562
G1 X76.74 Y116.208 E289.45469
G1 X76.079 Y114.376 E289.64902
G1 X75.549 Y112.544 E289.83932
G1 X75.133 Y110.696 E290.02833
G1 X74.837 Y108.791 E290.22069
G1 X74.657 Y106.927 E290.40755
G1 X74.6 Y104.992 E290.6007
G1 X74.657 Y103.069 E290.79267
G1 X74.84 Y101.182 E290.98184
G1 X75.133 Y99.299 E291.17198
G1 X75.555 Y97.432 E291.36297
G1 X76.079 Y95.62 E291.55118
G1 X76.74 Y93.788 E291.74551
G1 X77.495 Y92.05 E291.93459
G1 X78.363 Y90.348 E292.12523
G1 X79.34 Y88.695 E292.31682
G1 X80.4 Y87.132 E292.50526
G1 X81.587 Y85.607 E292.69808
G1 X82.849 Y84.177 E292.88839
G1 X84.195 Y82.831 E293.07832
G1 X85.616 Y81.579 E293.26729
G1 X87.143 Y80.392 E293.46028
G1 X88.695 Y79.34 E293.64736
G1 X90.37 Y78.351 E293.84145
G1 X92.069 Y77.484 E294.03178
G1 X93.812 Y76.731 E294.22123
G1 X95.62 Y76.079 E294.413
G1 X97.448 Y75.549 E294.60291
G1 X99.3 Y75.133 E294.79231
G1 X101.205 Y74.837 E294.98467
G1 X103.073 Y74.657 E295.17193
G1 X105.012 Y74.6 E295.36549
G1 X106.927 Y74.657 E295.55665
G1 X108.814 Y74.84 E295.74582
G1 X110.696 Y75.133 E295.93587
G1 X112.572 Y75.555 E296.12773
G1 X114.4 Y76.087 E296.3177
G1 X116.207 Y76.74 E296.50941
G1 X117.95 Y77.495 E296.69895
G1 X119.652 Y78.363 E296.88958
G1 X121.305 Y79.341 E297.08123
G1 X122.874 Y80.407 E297.2705
G1 X124.393 Y81.587 E297.46242
G1 X125.824 Y82.849 E297.6528
G1 X127.165 Y84.195 E297.84238
G1 X128.417 Y85.616 E298.03135
G1 X129.604 Y87.143 E298.22434
G1 X130.656 Y88.695 E298.41142
G1 X131.645 Y90.369 E298.60543
