;FLAVOR:Marlin
;TIME:2755
;Filament used: 4.00957m
;Layer height: 0.2
;MINX:67.291
;MINY:67.291
;MINZ:0.3
;MAXX:142.709
;MAXY:142.709
;MAXZ:39.211
;TARGET_MACHINE.NAME:Anycubic i3 Mega S/Pro
;Generated with Cura_SteamEngine 5.8.1
M82 ;absolute extrusion mode
;Profil Homepage: https://github.com/NilsRo/Cura_Anycubic_MegaS_Profile

;Slicer Information - (Support for OctoPrint Slicer Estimator)
;Slicer info:material_guid;0ff92885-617b-4144-a03c-9989872454bc
;Slicer info:material_id;generic_pla_175
;Slicer info:material_brand;Generic
;Slicer info:material_name;PLA
;Slicer info:filament_cost;[0.0]
;Slicer info:material_bed_temperature;60
;Slicer info:material_bed_temperature_layer_0;60
;Slicer info:material_print_temperature;200
;Slicer info:material_print_temperature_layer_0;205
;Slicer info:material_flow;100
;Slicer info:layer_height;0.2
;Slicer info:machine_nozzle_size;0.4
;Slicer info:wall_thickness;1.6
;Slicer info:speed_print;50.0
;Slicer info:speed_topbottom;25.0
;Slicer info:travel_speed;100.0
;Slicer info:support;0
;Slicer info:retraction_speed;30
;Slicer info:retraction_amount;6
;Slicer info:layer_height;0.2
;Slicer info:infill_pattern;cubic
;Slicer info:infill_sparse_density;20.0
;Slicer info:cool_fan_enabled;True
;Slicer info:cool_fan_speed;100
;Slicer info:sliced_at;Thu 10-10-2024 18:10:17
G21                                        ; metric values 
G90                                        ; absolute positioning 
M82                                        ; set extruder to absolute mode 
M900 K0                                    ; disable lin. adv. if not set in GCODE
M107                                       ; start with the fan off 
M140 S60   ; Start heating the bed 
G4 S60                                     ; wait 1 minute 
M104 S205 ; start heating the hot end 
M190 S60   ; wait for bed 
M109 S205 ; wait for hotend 
M300 S1000 P500                            ; BEEP heating done 
G28 X0 Y10 Z0                              ; move X/Y to min endstops 
M420 S1                                    ; Enable leveling 
M420 Z2.0                                  ; Set leveling fading height to 2 mm 
G0 Z0.15                                   ; lift nozzle a bit 
G92 E0                                     ; zero the extruded length 
G1 X50 E20 F500                            ; Extrude 20mm of filament in a 5cm line. 
G92 E0                                     ; zero the extruded length again 
G1 E-2 F500                                ; Retract a little 
G1 X50 F500                                ; wipe away from the filament line
G1 X100 F9000                              ; Quickly wipe away from the filament line
G92 E0
G92 E0
G1 F1800 E-6
;LAYER_COUNT:195
;LAYER:0
M106 S76.5
M205 X10 Y10
G1 F480 Z0.375
G0 F6000 X78.294 Y78.382 Z0.375
M205 X8 Y8
;TYPE:SKIRT
G1 F480 Z0.3
G1 F1800 E0
G1 F1200 X79.103 Y77.59 E0.11297
G1 X80.025 Y76.751 E0.23735
G1 X80.907 Y75.992 E0.35346
G1 X81.829 Y75.253 E0.47136
G1 X82.761 Y74.547 E0.58802
G1 X83.753 Y73.849 E0.70905
G1 X84.571 Y73.303 E0.80719
G1 X85.725 Y72.592 E0.94243
G1 X86.603 Y72.083 E1.0437
G1 X87.791 Y71.449 E1.17806
G1 X88.839 Y70.929 E1.2948
G1 X89.975 Y70.417 E1.41913
G1 X91.043 Y69.97 E1.53465
G1 X92.154 Y69.549 E1.6532
G1 X93.106 Y69.216 E1.75383
G1 X94.398 Y68.815 E1.88881
G1 X95.546 Y68.496 E2.0077
G1 X96.707 Y68.216 E2.12687
G1 X97.704 Y68.003 E2.2286
G1 X98.966 Y67.778 E2.3565
G1 X100.193 Y67.598 E2.48024
G1 X101.365 Y67.469 E2.59789
G1 X102.564 Y67.369 E2.71795
G1 X103.599 Y67.319 E2.82134
G1 X104.903 Y67.291 E2.95148
G1 X106.153 Y67.311 E3.07622
G1 X107.099 Y67.349 E3.17069
G1 X108.476 Y67.453 E3.30848
G1 X109.634 Y67.576 E3.42468
G1 X110.836 Y67.747 E3.54582
G1 X111.957 Y67.937 E3.65927
G1 X113.167 Y68.188 E3.78257
G1 X114.319 Y68.461 E3.90071
G1 X115.475 Y68.778 E4.02031
G1 X116.428 Y69.065 E4.11962
G1 X117.686 Y69.492 E4.25218
G1 X118.842 Y69.923 E4.37528
G1 X119.898 Y70.362 E4.48939
G1 X120.815 Y70.768 E4.58945
G1 X122.047 Y71.366 E4.7261
G1 X123.121 Y71.93 E4.84714
G1 X124.097 Y72.487 E4.95927
G1 X124.991 Y73.027 E5.06348
G1 X126.475 Y74.005 E5.24082
G1 X127.096 Y74.444 E5.31671
G1 X128.09 Y75.19 E5.44071
G1 X128.963 Y75.884 E5.55199
G1 X129.898 Y76.682 E5.67465
G1 X130.599 Y77.312 E5.76869
G1 X131.618 Y78.294 E5.90989
G1 X132.41 Y79.103 E6.02286
G1 X133.249 Y80.025 E6.14725
G1 X134.008 Y80.907 E6.26335
G1 X134.747 Y81.829 E6.38125
G1 X135.453 Y82.761 E6.49792
G1 X136.151 Y83.753 E6.61895
G1 X136.697 Y84.571 E6.71708
G1 X137.408 Y85.725 E6.85233
G1 X137.917 Y86.603 E6.95359
G1 X138.539 Y87.768 E7.08537
G1 X139.084 Y88.867 E7.20777
G1 X139.583 Y89.975 E7.32902
G1 X140.03 Y91.044 E7.44463
G1 X140.451 Y92.154 E7.56309
G1 X140.848 Y93.298 E7.68392
G1 X141.185 Y94.395 E7.79842
G1 X141.505 Y95.547 E7.91772
G1 X141.788 Y96.728 E8.0389
G1 X141.997 Y97.704 E8.13849
G1 X142.221 Y98.965 E8.26629
G1 X142.402 Y100.192 E8.39004
G1 X142.518 Y101.237 E8.49495
G1 X142.631 Y102.564 E8.62784
G1 X142.681 Y103.6 E8.73133
G1 X142.709 Y104.902 E8.86128
G1 X142.689 Y106.153 E8.98612
G1 X142.651 Y107.099 E9.08059
G1 X142.547 Y108.476 E9.21838
G1 X142.424 Y109.634 E9.33457
G1 X142.253 Y110.836 E9.45572
G1 X142.063 Y111.957 E9.56916
G1 X141.812 Y113.167 E9.69247
G1 X141.539 Y114.319 E9.8106
G1 X141.222 Y115.475 E9.9302
G1 X140.935 Y116.427 E10.02942
G1 X140.509 Y117.685 E10.16194
G1 X140.078 Y118.841 E10.28505
G1 X139.638 Y119.898 E10.39929
G1 X139.232 Y120.815 E10.49935
G1 X138.635 Y122.044 E10.63568
G1 X138.07 Y123.123 E10.75722
G1 X137.512 Y124.099 E10.86939
G1 X136.869 Y125.157 E10.99293
G1 X136.245 Y126.107 E11.10634
G1 X135.556 Y127.096 E11.22661
G1 X134.81 Y128.09 E11.35062
G1 X134.116 Y128.963 E11.46189
G1 X133.317 Y129.899 E11.58469
G1 X132.537 Y130.763 E11.70083
G1 X131.733 Y131.593 E11.81614
G1 X130.878 Y132.428 E11.93538
G1 X129.802 Y133.402 E12.0802
G1 X129.071 Y134.026 E12.1761
G1 X128.175 Y134.744 E12.29067
G1 X127.239 Y135.453 E12.40783
G1 X126.247 Y136.151 E12.52886
G1 X125.429 Y136.697 E12.62699
G1 X124.275 Y137.408 E12.76224
G1 X123.397 Y137.917 E12.8635
G1 X122.209 Y138.551 E12.99787
G1 X121.161 Y139.071 E13.1146
G1 X120.024 Y139.584 E13.23907
G1 X118.962 Y140.028 E13.35392
G1 X117.846 Y140.451 E13.47301
G1 X116.894 Y140.784 E13.57364
G1 X115.602 Y141.185 E13.70862
G1 X114.454 Y141.504 E13.82751
G1 X113.293 Y141.784 E13.94668
G1 X112.296 Y141.997 E14.0484
G1 X111.034 Y142.222 E14.17631
G1 X109.807 Y142.402 E14.30005
G1 X108.635 Y142.531 E14.4177
G1 X107.436 Y142.631 E14.53775
G1 X106.401 Y142.681 E14.64115
G1 X105.097 Y142.709 E14.77129
G1 X103.847 Y142.689 E14.89603
G1 X102.901 Y142.651 E14.9905
G1 X101.524 Y142.547 E15.12829
G1 X100.366 Y142.424 E15.24449
G1 X99.164 Y142.253 E15.36563
G1 X98.043 Y142.063 E15.47908
G1 X96.833 Y141.812 E15.60238
G1 X95.681 Y141.539 E15.72051
G1 X94.525 Y141.222 E15.84012
G1 X93.572 Y140.935 E15.93943
G1 X92.314 Y140.508 E16.07198
G1 X91.158 Y140.077 E16.19509
G1 X90.102 Y139.638 E16.3092
G1 X89.185 Y139.232 E16.40926
G1 X87.953 Y138.634 E16.54591
G1 X86.879 Y138.07 E16.66695
G1 X85.903 Y137.513 E16.77908
G1 X85.009 Y136.973 E16.88329
G1 X83.522 Y135.994 E17.06094
G1 X82.904 Y135.555 E17.13658
G1 X81.91 Y134.81 E17.26052
G1 X81.036 Y134.116 E17.37188
G1 X80.206 Y133.409 E17.48067
G1 X79.236 Y132.536 E17.61088
G1 X78.407 Y131.733 E17.72604
G1 X77.571 Y130.877 E17.84543
G1 X76.598 Y129.802 E17.99011
G1 X75.974 Y129.071 E18.08601
G1 X75.256 Y128.175 E18.20058
G1 X74.547 Y127.24 E18.31766
G1 X73.924 Y126.355 E18.42565
G1 X73.191 Y125.252 E18.5578
G1 X72.588 Y124.268 E18.67295
G1 X72.082 Y123.396 E18.77355
G1 X71.449 Y122.209 E18.90777
G1 X70.929 Y121.161 E19.02451
G1 X70.417 Y120.025 E19.14884
G1 X69.97 Y118.957 E19.26436
G1 X69.549 Y117.846 E19.38291
G1 X69.216 Y116.894 E19.48354
G1 X68.815 Y115.603 E19.61843
G1 X68.492 Y114.44 E19.73887
G1 X68.212 Y113.272 E19.85871
G1 X68.003 Y112.296 E19.95831
G1 X67.778 Y111.034 E20.08622
G1 X67.598 Y109.807 E20.20996
G1 X67.469 Y108.635 E20.32761
G1 X67.369 Y107.436 E20.44766
G1 X67.319 Y106.401 E20.55105
G1 X67.291 Y105.098 E20.6811
G1 X67.311 Y103.847 E20.80594
G1 X67.349 Y102.901 E20.90041
G1 X67.453 Y101.524 E21.03819
G1 X67.576 Y100.366 E21.15439
G1 X67.747 Y99.164 E21.27553
G1 X67.937 Y98.043 E21.38898
G1 X68.188 Y96.833 E21.51229
G1 X68.461 Y95.681 E21.63042
G1 X68.778 Y94.525 E21.75002
G1 X69.065 Y93.573 E21.84924
G1 X69.491 Y92.315 E21.98176
G1 X69.922 Y91.159 E22.10486
G1 X70.362 Y90.102 E22.2191
G1 X70.768 Y89.185 E22.31917
G1 X71.365 Y87.956 E22.4555
G1 X71.93 Y86.877 E22.57703
G1 X72.487 Y85.903 E22.68899
G1 X73.027 Y85.009 E22.7932
G1 X74.005 Y83.525 E22.97054
G1 X74.444 Y82.904 E23.04642
G1 X75.19 Y81.91 E23.17043
G1 X75.884 Y81.037 E23.28171
G1 X76.682 Y80.102 E23.40436
G1 X77.312 Y79.401 E23.49841
G1 X78.294 Y78.382 E23.63961
M205 X10 Y10
G0 F6000 X78.854 Y78.954
M205 X8 Y8
G1 F1200 X79.663 Y78.162 E23.75258
G1 X80.547 Y77.357 E23.87188
G1 X81.408 Y76.616 E23.98522
G1 X82.313 Y75.89 E24.10099
G1 X83.221 Y75.201 E24.21472
G1 X84.198 Y74.514 E24.33389
G1 X84.991 Y73.984 E24.42907
G1 X86.127 Y73.284 E24.56221
G1 X86.98 Y72.789 E24.66061
G1 X88.147 Y72.166 E24.79261
G1 X89.195 Y71.646 E24.90935
G1 X90.284 Y71.155 E25.02854
G1 X91.327 Y70.718 E25.14138
G1 X92.419 Y70.304 E25.25791
G1 X93.343 Y69.98 E25.35561
G1 X94.612 Y69.586 E25.48819
G1 X95.734 Y69.274 E25.60439
G1 X96.895 Y68.994 E25.72356
G1 X97.844 Y68.791 E25.82039
G1 X99.106 Y68.566 E25.9483
G1 X100.281 Y68.393 E26.06681
G1 X101.432 Y68.266 E26.18235
G1 X102.603 Y68.168 E26.2996
G1 X103.617 Y68.119 E26.4009
G1 X104.891 Y68.091 E26.52805
G1 X106.121 Y68.11 E26.65079
G1 X107.039 Y68.147 E26.74247
G1 X108.392 Y68.249 E26.87785
G1 X109.521 Y68.368 E26.99113
G1 X110.702 Y68.536 E27.11016
G1 X111.823 Y68.726 E27.2236
G1 X112.983 Y68.967 E27.34182
G1 X114.108 Y69.233 E27.45717
G1 X115.244 Y69.544 E27.57469
G1 X116.171 Y69.823 E27.67129
G1 X117.407 Y70.242 E27.80151
G1 X118.535 Y70.662 E27.92161
G1 X119.574 Y71.093 E28.03385
G1 X120.466 Y71.488 E28.13119
G1 X121.676 Y72.075 E28.26538
G1 X122.725 Y72.625 E28.38356
G1 X123.684 Y73.172 E28.49372
G1 X124.551 Y73.695 E28.59475
G1 X126.013 Y74.658 E28.76944
G1 X126.616 Y75.084 E28.8431
G1 X127.592 Y75.816 E28.96484
G1 X128.444 Y76.493 E29.07342
G1 X129.364 Y77.278 E29.19409
G1 X130.044 Y77.888 E29.28524
G1 X131.046 Y78.854 E29.42412
G1 X131.838 Y79.663 E29.53708
G1 X132.643 Y80.547 E29.65638
G1 X133.384 Y81.408 E29.76973
G1 X134.11 Y82.313 E29.8855
G1 X134.799 Y83.221 E29.99923
G1 X135.486 Y84.198 E30.1184
G1 X136.016 Y84.991 E30.21357
G1 X136.716 Y86.127 E30.34672
G1 X137.211 Y86.98 E30.44512
G1 X137.833 Y88.145 E30.5769
G1 X138.355 Y89.196 E30.69399
G1 X138.845 Y90.284 E30.81305
G1 X139.282 Y91.327 E30.92589
G1 X139.695 Y92.417 E31.04219
G1 X140.083 Y93.533 E31.16009
G1 X140.414 Y94.61 E31.27251
G1 X140.727 Y95.734 E31.38893
G1 X141.006 Y96.895 E31.50807
G1 X141.209 Y97.844 E31.60491
G1 X141.433 Y99.105 E31.7327
G1 X141.607 Y100.281 E31.85132
G1 X141.721 Y101.305 E31.95413
G1 X141.832 Y102.603 E32.08411
G1 X141.881 Y103.618 E32.18551
G1 X141.909 Y104.89 E32.31246
G1 X141.89 Y106.121 E32.4353
G1 X141.853 Y107.039 E32.52698
G1 X141.751 Y108.392 E32.66236
G1 X141.632 Y109.521 E32.77564
G1 X141.464 Y110.702 E32.89467
G1 X141.274 Y111.823 E33.00812
G1 X141.033 Y112.983 E33.12633
G1 X140.767 Y114.108 E33.24168
G1 X140.456 Y115.244 E33.3592
G1 X140.177 Y116.171 E33.4558
G1 X139.759 Y117.406 E33.58589
G1 X139.339 Y118.534 E33.70599
G1 X138.907 Y119.574 E33.81836
G1 X138.512 Y120.466 E33.9157
G1 X137.926 Y121.673 E34.04958
G1 X137.375 Y122.726 E34.16816
G1 X136.828 Y123.684 E34.27824
G1 X136.2 Y124.718 E34.39895
G1 X135.589 Y125.65 E34.51015
G1 X134.916 Y126.616 E34.62762
G1 X134.184 Y127.592 E34.74935
G1 X133.507 Y128.444 E34.85794
G1 X132.723 Y129.363 E34.97847
G1 X131.962 Y130.206 E35.09179
G1 X131.158 Y131.036 E35.20709
G1 X130.341 Y131.835 E35.32111
G1 X129.282 Y132.794 E35.46367
G1 X128.57 Y133.402 E35.55709
G1 X127.691 Y134.107 E35.66952
G1 X126.779 Y134.799 E35.78375
G1 X125.802 Y135.486 E35.90293
G1 X125.009 Y136.016 E35.9981
G1 X123.873 Y136.716 E36.13124
G1 X123.02 Y137.211 E36.22965
G1 X121.853 Y137.834 E36.36165
G1 X120.805 Y138.354 E36.47838
G1 X119.715 Y138.846 E36.59771
G1 X118.679 Y139.28 E36.70978
G1 X117.581 Y139.696 E36.82694
G1 X116.657 Y140.02 E36.92464
G1 X115.388 Y140.414 E37.05723
G1 X114.266 Y140.726 E37.17343
G1 X113.105 Y141.006 E37.29259
G1 X112.156 Y141.209 E37.38943
G1 X110.894 Y141.434 E37.51734
G1 X109.719 Y141.607 E37.63584
G1 X108.568 Y141.734 E37.75139
G1 X107.397 Y141.832 E37.86864
G1 X106.383 Y141.881 E37.96993
G1 X105.109 Y141.909 E38.09709
G1 X103.879 Y141.89 E38.21983
G1 X102.961 Y141.853 E38.3115
G1 X101.608 Y141.751 E38.44689
G1 X100.479 Y141.632 E38.56016
G1 X99.298 Y141.464 E38.67919
G1 X98.177 Y141.274 E38.79264
G1 X97.017 Y141.033 E38.91086
G1 X95.892 Y140.767 E39.02621
G1 X94.756 Y140.456 E39.14373
G1 X93.829 Y140.177 E39.24032
G1 X92.593 Y139.758 E39.37054
G1 X91.465 Y139.338 E39.49065
G1 X90.426 Y138.907 E39.60288
G1 X89.534 Y138.512 E39.70022
G1 X88.324 Y137.925 E39.83441
G1 X87.275 Y137.375 E39.9526
G1 X86.316 Y136.828 E40.06276
G1 X85.449 Y136.305 E40.16379
G1 X83.985 Y135.341 E40.33869
G1 X83.384 Y134.915 E40.4122
G1 X82.407 Y134.183 E40.53401
G1 X81.555 Y133.507 E40.64253
G1 X80.741 Y132.814 E40.7492
G1 X79.793 Y131.961 E40.87645
G1 X78.964 Y131.158 E40.99161
G1 X78.164 Y130.34 E41.10577
G1 X77.206 Y129.282 E41.24819
G1 X76.598 Y128.57 E41.34161
G1 X75.893 Y127.691 E41.45404
G1 X75.201 Y126.779 E41.56827
G1 X74.59 Y125.912 E41.67411
G1 X73.873 Y124.834 E41.80329
G1 X73.28 Y123.867 E41.91648
G1 X72.788 Y123.019 E42.0143
G1 X72.166 Y121.853 E42.14616
G1 X71.646 Y120.805 E42.2629
G1 X71.155 Y119.716 E42.38209
G1 X70.718 Y118.673 E42.49493
G1 X70.304 Y117.581 E42.61146
G1 X69.98 Y116.657 E42.70916
G1 X69.586 Y115.389 E42.84165
G1 X69.27 Y114.253 E42.9593
G1 X68.994 Y113.105 E43.07711
G1 X68.791 Y112.156 E43.17395
G1 X68.566 Y110.894 E43.30185
G1 X68.393 Y109.719 E43.42036
G1 X68.266 Y108.568 E43.5359
G1 X68.168 Y107.397 E43.65316
G1 X68.119 Y106.383 E43.75445
G1 X68.091 Y105.11 E43.8815
G1 X68.11 Y103.879 E44.00435
G1 X68.147 Y102.961 E44.09602
G1 X68.249 Y101.608 E44.23141
G1 X68.368 Y100.479 E44.34468
G1 X68.536 Y99.298 E44.46371
G1 X68.726 Y98.177 E44.57716
G1 X68.967 Y97.017 E44.69537
G1 X69.233 Y95.892 E44.81072
G1 X69.544 Y94.756 E44.92824
G1 X69.823 Y93.829 E45.02484
G1 X70.241 Y92.594 E45.15493
G1 X70.661 Y91.466 E45.27504
G1 X71.093 Y90.426 E45.3874
G1 X71.488 Y89.534 E45.48474
G1 X72.074 Y88.327 E45.61862
G1 X72.625 Y87.274 E45.73721
G1 X73.172 Y86.316 E45.84728
G1 X73.695 Y85.449 E45.94831
G1 X74.658 Y83.987 E46.12299
G1 X75.084 Y83.384 E46.19666
G1 X75.816 Y82.408 E46.31839
G1 X76.493 Y81.556 E46.42698
G1 X77.278 Y80.636 E46.54765
G1 X77.888 Y79.956 E46.6388
G1 X78.854 Y78.954 E46.77768
M205 X10 Y10
G1 F1800 E40.77768
G1 F480 Z0.375
;MESH:tampa_copo.stl
G0 F6000 X104.999 Y135.999 Z0.375
M205 X8 Y8
;TYPE:WALL-OUTER
G1 F480 Z0.3
G1 F1800 E46.77768
G1 F1200 X103.058 Y135.936 E46.97145
G1 X101.107 Y135.754 E47.16697
G1 X99.196 Y135.45 E47.36005
G1 X97.284 Y135.024 E47.55551
G1 X95.416 Y134.479 E47.74967
G1 X93.592 Y133.823 E47.94308
G1 X91.803 Y133.049 E48.13758
G1 X90.057 Y132.161 E48.33303
G1 X88.391 Y131.174 E48.52625
G1 X86.772 Y130.076 E48.72144
G1 X85.232 Y128.879 E48.91606
G1 X83.774 Y127.592 E49.11011
G1 X82.396 Y126.218 E49.30428
G1 X81.109 Y124.753 E49.49885
G1 X79.924 Y123.224 E49.69187
G1 X78.822 Y121.605 E49.88729
G1 X77.831 Y119.927 E50.08174
G1 X76.947 Y118.193 E50.27594
G1 X76.173 Y116.404 E50.47044
G1 X75.517 Y114.584 E50.66348
G1 X74.976 Y112.712 E50.85791
G1 X74.546 Y110.8 E51.05346
G1 X74.242 Y108.878 E51.24762
G1 X74.06 Y106.939 E51.44194
G1 X74.001 Y105.003 E51.63521
G1 X74.06 Y103.057 E51.82947
G1 X74.242 Y101.118 E52.02379
G1 X74.546 Y99.196 E52.21796
G1 X74.976 Y97.284 E52.4135
G1 X75.517 Y95.416 E52.60755
G1 X76.173 Y93.592 E52.80096
G1 X76.947 Y91.803 E52.99546
G1 X77.831 Y90.069 E53.18967
G1 X78.822 Y88.391 E53.38412
G1 X79.924 Y86.772 E53.57953
G1 X81.109 Y85.244 E53.77247
