;FLAVOR:Marlin
;TIME:4770
;Filament used: 3.42884m
;Layer height: 0.2
;MINX:70.003
;MINY:70.128
;MINZ:0.3
;MAXX:139.997
;MAXY:139.872
;MAXZ:72.012
;TARGET_MACHINE.NAME:Anycubic i3 Mega S/Pro
;Generated with Cura_SteamEngine 5.8.1
M82 ;absolute extrusion mode
;Profil Homepage: https://github.com/NilsRo/Cura_Anycubic_MegaS_Profile

;Slicer Information - (Support for OctoPrint Slicer Estimator)
;Slicer info:material_guid;0ff92885-617b-4144-a03c-9989872454bc
;Slicer info:material_id;generic_pla_175
;Slicer info:material_brand;Generic
;Slicer info:material_name;PLA
;Slicer info:filament_cost;[0.0]
;Slicer info:material_bed_temperature;60
;Slicer info:material_bed_temperature_layer_0;60
;Slicer info:material_print_temperature;200
;Slicer info:material_print_temperature_layer_0;205
;Slicer info:material_flow;100
;Slicer info:layer_height;0.2
;Slicer info:machine_nozzle_size;0.4
;Slicer info:wall_thickness;1.2000000000000002
;Slicer info:speed_print;50.0
;Slicer info:speed_topbottom;25.0
;Slicer info:travel_speed;100.0
;Slicer info:support;0
;Slicer info:retraction_speed;30
;Slicer info:retraction_amount;6
;Slicer info:layer_height;0.2
;Slicer info:infill_pattern;cubic
;Slicer info:infill_sparse_density;20.0
;Slicer info:cool_fan_enabled;True
;Slicer info:cool_fan_speed;100
;Slicer info:sliced_at;Sat 05-10-2024 16:02:05
G21                                        ; metric values 
G90                                        ; absolute positioning 
M82                                        ; set extruder to absolute mode 
M900 K0                                    ; disable lin. adv. if not set in GCODE
M107                                       ; start with the fan off 
M140 S60   ; Start heating the bed 
G4 S60                                     ; wait 1 minute 
M104 S205 ; start heating the hot end 
M190 S60   ; wait for bed 
M109 S205 ; wait for hotend 
M300 S1000 P500                            ; BEEP heating done 
G28 X0 Y10 Z0                              ; move X/Y to min endstops 
M420 S1                                    ; Enable leveling 
M420 Z2.0                                  ; Set leveling fading height to 2 mm 
G0 Z0.15                                   ; lift nozzle a bit 
G92 E0                                     ; zero the extruded length 
G1 X50 E20 F500                            ; Extrude 20mm of filament in a 5cm line. 
G92 E0                                     ; zero the extruded length again 
G1 E-2 F500                                ; Retract a little 
G1 X50 F500                                ; wipe away from the filament line
G1 X100 F9000                              ; Quickly wipe away from the filament line
G92 E0
G92 E0
G1 F1800 E-6
;LAYER_COUNT:359
;LAYER:0
M106 S76.5
M205 X10 Y10
G1 F480 Z0.375
G0 F6000 X81.193 Y79.345 Z0.375
M205 X8 Y8
;TYPE:SKIRT
G1 F480 Z0.3
G1 F1800 E0
G1 F1200 X81.893 Y78.714 E0.04702
G1 X82.805 Y78.024 E0.10407
G1 X86.491 Y75.345 E0.33141
G1 X87.038 Y74.961 E0.36475
G1 X87.861 Y74.485 E0.41218
G1 X88.938 Y73.981 E0.47151
G1 X93.079 Y72.138 E0.69764
G1 X93.683 Y71.881 E0.73039
G1 X94.588 Y71.585 E0.77789
G1 X95.614 Y71.347 E0.83044
G1 X100.162 Y70.379 E1.06242
G1 X100.805 Y70.252 E1.09512
G1 X101.753 Y70.151 E1.14269
G1 X102.928 Y70.129 E1.20132
G1 X107.442 Y70.128 E1.42652
G1 X108.128 Y70.139 E1.46075
G1 X109.071 Y70.237 E1.50805
G1 X110.151 Y70.445 E1.56292
G1 X114.659 Y71.405 E1.79287
G1 X115.325 Y71.559 E1.82697
G1 X116.211 Y71.846 E1.87344
G1 X117.155 Y72.244 E1.92455
G1 X121.404 Y74.134 E2.15656
G1 X122.039 Y74.428 E2.19147
G1 X122.866 Y74.903 E2.23905
G1 X123.737 Y75.51 E2.29201
G1 X127.485 Y78.235 E2.5232
G1 X128.032 Y78.647 E2.55737
G1 X128.728 Y79.271 E2.604
G1 X129.441 Y80.031 E2.65599
G1 X132.561 Y83.495 E2.88858
G1 X133.009 Y84.01 E2.92263
G1 X133.561 Y84.769 E2.96945
G1 X134.103 Y85.666 E3.02174
G1 X136.416 Y89.67 E3.25244
G1 X136.756 Y90.28 E3.28728
G1 X137.143 Y91.145 E3.33455
G1 X137.516 Y92.224 E3.39151
G1 X138.926 Y96.568 E3.61937
G1 X139.124 Y97.215 E3.65312
G1 X139.321 Y98.141 E3.70035
G1 X139.464 Y99.292 E3.75822
G1 X139.933 Y103.767 E3.9827
G1 X139.996 Y104.473 E4.01806
G1 X139.997 Y105.421 E4.06536
G1 X139.897 Y106.586 E4.12369
G1 X139.434 Y110.99 E4.34462
G1 X139.343 Y111.752 E4.38291
G1 X139.146 Y112.687 E4.43058
G1 X138.805 Y113.809 E4.48909
G1 X137.416 Y118.084 E4.71334
G1 X137.188 Y118.75 E4.74846
G1 X136.817 Y119.59 E4.79427
G1 X136.29 Y120.547 E4.84878
G1 X133.982 Y124.545 E5.07909
G1 X133.618 Y125.152 E5.1144
G1 X133.065 Y125.912 E5.16129
G1 X132.305 Y126.79 E5.21923
G1 X129.332 Y130.091 E5.44086
G1 X128.807 Y130.655 E5.47931
G1 X128.107 Y131.286 E5.52632
G1 X127.195 Y131.976 E5.58338
G1 X123.513 Y134.652 E5.81046
G1 X122.967 Y135.036 E5.84377
G1 X122.169 Y135.5 E5.88982
G1 X121.062 Y136.019 E5.95082
G1 X116.933 Y137.855 E6.17626
G1 X116.321 Y138.117 E6.20947
G1 X115.412 Y138.415 E6.2572
G1 X114.386 Y138.653 E6.30975
G1 X109.838 Y139.621 E6.54173
G1 X109.195 Y139.748 E6.57443
G1 X108.247 Y139.849 E6.62199
G1 X107.072 Y139.871 E6.68062
G1 X102.558 Y139.872 E6.90583
G1 X101.872 Y139.861 E6.94006
G1 X100.929 Y139.763 E6.98736
G1 X99.849 Y139.555 E7.04223
G1 X95.341 Y138.595 E7.27218
G1 X94.675 Y138.441 E7.30628
G1 X93.786 Y138.153 E7.3529
G1 X92.829 Y137.749 E7.40473
G1 X88.596 Y135.866 E7.63586
G1 X87.961 Y135.572 E7.67077
G1 X87.134 Y135.097 E7.71835
G1 X86.263 Y134.49 E7.77132
G1 X82.515 Y131.765 E8.00251
G1 X81.968 Y131.353 E8.03667
G1 X81.272 Y130.729 E8.08331
G1 X80.559 Y129.969 E8.1353
G1 X77.439 Y126.505 E8.36788
G1 X76.991 Y125.99 E8.40194
G1 X76.439 Y125.231 E8.44876
G1 X75.897 Y124.334 E8.50105
G1 X73.584 Y120.33 E8.73174
G1 X73.244 Y119.72 E8.76658
G1 X72.857 Y118.855 E8.81386
G1 X72.484 Y117.776 E8.87082
G1 X71.074 Y113.432 E9.09867
G1 X70.876 Y112.785 E9.13243
G1 X70.679 Y111.859 E9.17966
G1 X70.536 Y110.708 E9.23753
G1 X70.067 Y106.233 E9.46201
G1 X70.004 Y105.527 E9.49737
G1 X70.003 Y104.579 E9.54467
G1 X70.103 Y103.414 E9.603
G1 X70.566 Y99.01 E9.82393
G1 X70.657 Y98.247 E9.86226
G1 X70.854 Y97.311 E9.90998
G1 X71.195 Y96.191 E9.96839
G1 X72.584 Y91.916 E10.19265
G1 X72.812 Y91.25 E10.22777
G1 X73.183 Y90.41 E10.27358
G1 X73.71 Y89.453 E10.32809
G1 X76.018 Y85.455 E10.5584
G1 X76.382 Y84.848 E10.59371
G1 X76.935 Y84.088 E10.6406
G1 X77.695 Y83.21 E10.69854
G1 X80.668 Y79.909 E10.92017
G1 X81.193 Y79.345 E10.95861
M205 X10 Y10
G0 F6000 X81.461 Y79.642
M205 X8 Y8
G1 F1200 X82.134 Y79.033 E11.0039
G1 X83.04 Y78.348 E11.06056
G1 X86.722 Y75.672 E11.28765
G1 X87.239 Y75.307 E11.31922
G1 X88.031 Y74.847 E11.36492
G1 X89.101 Y74.346 E11.42386
G1 X93.237 Y72.506 E11.6497
G1 X93.808 Y72.261 E11.6807
G1 X94.679 Y71.975 E11.72644
G1 X95.697 Y71.738 E11.77859
G1 X100.24 Y70.771 E12.01032
G1 X100.848 Y70.65 E12.04124
G1 X101.761 Y70.551 E12.08706
G1 X102.928 Y70.529 E12.14529
G1 X107.436 Y70.528 E12.3702
G1 X108.087 Y70.537 E12.40268
G1 X108.996 Y70.63 E12.44827
G1 X110.068 Y70.836 E12.50273
G1 X114.57 Y71.795 E12.73237
G1 X115.202 Y71.94 E12.76472
G1 X116.056 Y72.215 E12.80948
G1 X116.992 Y72.609 E12.86015
G1 X121.237 Y74.497 E13.09193
G1 X121.84 Y74.775 E13.12506
G1 X122.637 Y75.231 E13.17087
G1 X123.502 Y75.834 E13.22348
G1 X127.245 Y78.555 E13.45435
G1 X127.765 Y78.945 E13.48677
G1 X128.436 Y79.545 E13.53168
G1 X129.144 Y80.299 E13.58328
G1 X132.26 Y83.758 E13.81555
G1 X132.686 Y84.246 E13.84787
G1 X133.219 Y84.976 E13.89296
G1 X133.757 Y85.866 E13.94485
G1 X136.067 Y89.865 E14.17525
G1 X136.391 Y90.444 E14.20835
G1 X136.765 Y91.276 E14.25386
G1 X137.136 Y92.347 E14.31041
G1 X138.544 Y96.686 E14.538
G1 X138.733 Y97.299 E14.57
G1 X138.924 Y98.19 E14.61546
G1 X139.066 Y99.334 E14.67297
G1 X139.535 Y103.803 E14.89716
G1 X139.596 Y104.474 E14.93077
G1 X139.598 Y105.387 E14.97632
G1 X139.499 Y106.544 E15.03426
G1 X139.037 Y110.943 E15.25493
G1 X138.951 Y111.67 E15.29145
G1 X138.763 Y112.571 E15.33737
G1 X138.425 Y113.685 E15.39545
G1 X137.037 Y117.955 E15.61945
G1 X136.822 Y118.588 E15.65281
G1 X136.451 Y119.428 E15.69862
G1 X135.944 Y120.347 E15.75098
G1 X133.639 Y124.34 E15.981
G1 X133.294 Y124.917 E16.01454
G1 X132.763 Y125.65 E16.0597
G1 X132.008 Y126.522 E16.11725
G1 X129.039 Y129.819 E16.3386
G1 X128.539 Y130.358 E16.37528
G1 X127.866 Y130.967 E16.42056
G1 X126.96 Y131.652 E16.47723
G1 X123.282 Y134.325 E16.70406
G1 X122.766 Y134.69 E16.7356
G1 X121.968 Y135.154 E16.78165
G1 X120.899 Y135.654 E16.84053
G1 X116.775 Y137.488 E17.0657
G1 X116.196 Y137.737 E17.09715
G1 X115.321 Y138.025 E17.1431
G1 X114.303 Y138.262 E17.19525
G1 X109.76 Y139.229 E17.42698
G1 X109.152 Y139.35 E17.45791
G1 X108.239 Y139.449 E17.50372
G1 X107.072 Y139.471 E17.56196
G1 X102.564 Y139.472 E17.78686
G1 X101.913 Y139.463 E17.81934
G1 X101.004 Y139.37 E17.86493
G1 X99.932 Y139.164 E17.91939
G1 X95.43 Y138.205 E18.14904
G1 X94.798 Y138.06 E18.18139
G1 X93.941 Y137.784 E18.2263
G1 X92.992 Y137.384 E18.27768
G1 X88.763 Y135.503 E18.5086
G1 X88.16 Y135.225 E18.54173
G1 X87.363 Y134.769 E18.58754
G1 X86.498 Y134.166 E18.64014
G1 X82.755 Y131.445 E18.87101
G1 X82.235 Y131.055 E18.90344
G1 X81.564 Y130.455 E18.94835
G1 X80.856 Y129.701 E18.99995
G1 X77.74 Y126.242 E19.23221
G1 X77.314 Y125.754 E19.26453
G1 X76.781 Y125.024 E19.30963
G1 X76.243 Y124.134 E19.36151
G1 X73.933 Y120.135 E19.59192
G1 X73.609 Y119.556 E19.62502
G1 X73.235 Y118.724 E19.67053
G1 X72.864 Y117.653 E19.72707
G1 X71.456 Y113.314 E19.95466
G1 X71.267 Y112.701 E19.98666
G1 X71.076 Y111.81 E20.03213
G1 X70.934 Y110.666 E20.08964
G1 X70.465 Y106.197 E20.31382
G1 X70.404 Y105.526 E20.34744
G1 X70.402 Y104.613 E20.39299
G1 X70.501 Y103.456 E20.45092
G1 X70.963 Y99.057 E20.67159
G1 X71.049 Y98.329 E20.70817
G1 X71.237 Y97.427 E20.75413
G1 X71.575 Y96.315 E20.81212
G1 X72.963 Y92.045 E21.03612
G1 X73.178 Y91.412 E21.06947
G1 X73.549 Y90.572 E21.11529
G1 X74.056 Y89.653 E21.16765
G1 X76.361 Y85.66 E21.39767
G1 X76.706 Y85.083 E21.43121
G1 X77.237 Y84.35 E21.47637
G1 X77.992 Y83.478 E21.53391
G1 X80.961 Y80.181 E21.75527
G1 X81.461 Y79.642 E21.79195
M205 X10 Y10
G1 F1800 E15.79195
G1 F480 Z0.375
G0 F6000 X85.574 Y83.425 Z0.375
M205 X8 Y8
;TYPE:SUPPORT-INTERFACE
G1 F480 Z0.3
G1 F1800 E21.79195
G1 F1200 X90.485 Y79.857 E22.09479
G1 X96.028 Y77.388 E22.39753
G1 X101.968 Y76.126 E22.70049
G1 X108.033 Y76.125 E23.00308
G1 X113.972 Y77.388 E23.306
G1 X119.515 Y79.857 E23.60873
G1 X124.426 Y83.425 E23.91158
G1 X128.489 Y87.937 E24.2145
G1 X131.522 Y93.191 E24.51717
G1 X133.398 Y98.963 E24.81996
G1 X134.033 Y105 E25.12281
G1 X133.398 Y111.037 E25.42566
G1 X131.522 Y116.809 E25.72845
G1 X128.489 Y122.063 E26.03112
G1 X124.426 Y126.575 E26.33404
G1 X119.515 Y130.143 E26.63689
G1 X113.972 Y132.612 E26.93962
G1 X108.032 Y133.874 E27.24258
G1 X101.967 Y133.875 E27.54517
G1 X96.028 Y132.612 E27.84809
G1 X90.485 Y130.143 E28.15083
G1 X85.574 Y126.575 E28.45367
G1 X81.511 Y122.063 E28.75659
G1 X78.478 Y116.809 E29.05926
G1 X76.602 Y111.037 E29.36205
G1 X75.967 Y105 E29.6649
G1 X76.602 Y98.963 E29.96775
G1 X78.478 Y93.191 E30.27054
G1 X81.511 Y87.937 E30.57321
G1 X85.574 Y83.425 E30.87613
M205 X10 Y10
G0 F6000 X85.753 Y83.624
M205 X8 Y8
G1 F1200 X81.729 Y88.092 E31.17612
G1 X78.722 Y93.3 E31.47614
G1 X76.864 Y99.02 E31.77619
G1 X76.236 Y105 E32.07618
G1 X76.864 Y110.98 E32.37616
G1 X78.722 Y116.7 E32.67621
G1 X81.729 Y121.908 E32.97624
G1 X85.753 Y126.376 E33.27623
G1 X90.618 Y129.911 E33.57625
G1 X96.112 Y132.358 E33.87631
G1 X101.992 Y133.607 E34.1762
G1 X108.008 Y133.607 E34.47634
G1 X113.888 Y132.358 E34.77624
G1 X119.382 Y129.911 E35.0763
G1 X124.247 Y126.376 E35.37632
G1 X128.271 Y121.908 E35.67631
G1 X131.278 Y116.7 E35.97634
G1 X133.136 Y110.98 E36.27639
G1 X133.764 Y105 E36.57637
G1 X133.136 Y99.02 E36.87636
G1 X131.278 Y93.3 E37.1764
G1 X128.271 Y88.092 E37.47643
G1 X124.247 Y83.624 E37.77642
G1 X119.382 Y80.089 E38.07644
G1 X113.887 Y77.642 E38.37654
G1 X108.009 Y76.392 E38.67636
G1 X101.992 Y76.393 E38.97655
G1 X96.112 Y77.642 E39.27645
G1 X90.618 Y80.089 E39.5765
G1 X85.753 Y83.624 E39.87652
M205 X10 Y10
G1 F1800 E33.87652
G1 F480 Z0.375
;MESH:testes.stl
G0 F6000 X107.879 Y132.404 Z0.375
M205 X8 Y8
;TYPE:WALL-OUTER
G1 F480 Z0.3
G1 F1800 E39.87652
G1 F1200 X102.117 Y132.404 E40.16399
G1 X96.483 Y131.208 E40.45134
G1 X91.217 Y128.861 E40.73897
G1 X86.559 Y125.478 E41.02618
G1 X82.707 Y121.201 E41.31335
G1 X79.824 Y116.206 E41.60108
G1 X78.045 Y110.73 E41.88833
G1 X77.442 Y104.999 E42.17583
G1 X78.045 Y99.266 E42.46343
G1 X79.824 Y93.79 E42.75068
G1 X82.711 Y88.795 E43.03852
G1 X86.559 Y84.518 E43.32555
G1 X91.217 Y81.135 E43.61276
G1 X96.483 Y78.788 E43.90039
G1 X102.117 Y77.592 E44.18774
G1 X107.879 Y77.592 E44.4752
G1 X113.517 Y78.788 E44.76274
G1 X118.779 Y81.135 E45.0502
G1 X123.437 Y84.518 E45.33741
G1 X127.289 Y88.795 E45.62457
G1 X130.176 Y93.79 E45.9124
G1 X131.951 Y99.266 E46.1996
G1 X132.554 Y105.001 E46.48729
G1 X131.951 Y110.73 E46.77469
G1 X130.176 Y116.206 E47.06189
G1 X127.289 Y121.201 E47.34972
G1 X123.437 Y125.478 E47.63688
G1 X118.779 Y128.861 E47.92409
G1 X113.517 Y131.208 E48.21155
G1 X107.879 Y132.404 E48.49909
M205 X10 Y10
G0 F6000 X108.074 Y132.363
G0 X107.839 Y132.024
M205 X8 Y8
;TYPE:SKIN
G1 F1200 X102.153 Y132.024 E48.78276
G1 X96.599 Y130.844 E49.06604
G1 X91.405 Y128.525 E49.34982
G1 X86.815 Y125.194 E49.63276
G1 X83.019 Y120.977 E49.91583
G1 X80.172 Y116.05 E50.19973
G1 X78.417 Y110.65 E50.48301
G1 X77.826 Y104.996 E50.76662
G1 X78.417 Y99.342 E51.05024
G1 X80.172 Y93.946 E51.33333
G1 X83.023 Y89.011 E51.61767
G1 X86.815 Y84.798 E51.90046
G1 X91.405 Y81.467 E52.1834
G1 X96.599 Y79.152 E52.4671
G1 X102.153 Y77.972 E52.75038
G1 X107.839 Y77.972 E53.03405
G1 X113.397 Y79.152 E53.31752
G1 X118.587 Y81.467 E53.60104
G1 X123.177 Y84.798 E53.88399
G1 X126.973 Y89.011 E54.16691
G1 X129.824 Y93.946 E54.45125
G1 X131.575 Y99.342 E54.73428
G1 X132.166 Y105.001 E55.01814
G1 X131.575 Y110.65 E55.30151
G1 X129.828 Y116.046 E55.58447
G1 X126.973 Y120.977 E55.86874
G1 X123.177 Y125.194 E56.15181
G1 X118.587 Y128.525 E56.43475
G1 X113.397 Y130.844 E56.71836
G1 X107.839 Y132.024 E57.00183
M205 X10 Y10
G1 F1800 E51.00183
G1 F480 Z0.375
G0 F6000 X87.656 Y125.557 Z0.375
M205 X8 Y8
G1 F480 Z0.3
G1 F1800 E57.00183
G1 F1200 X85.2 Y123.101 E57.17511
G1 X85.13 Y123.031
M205 X10 Y10
G1 F1800 E51.17511
G1 F480 Z0.375
G0 F6000 X82.714 Y120.049 Z0.375
M205 X8 Y8
G1 F480 Z0.3
G1 F1800 E57.17511
G1 F1200 X89.717 Y127.052 E57.66921
G1 X89.787 Y127.122
M205 X10 Y10
G1 F1800 E51.66921
G1 F480 Z0.375
G0 F6000 X91.641 Y128.411 Z0.375
M205 X8 Y8
G1 F480 Z0.3
G1 F1800 E57.66921
G1 F1200 X81.94 Y118.71 E58.35367
G1 X81.87 Y118.64
M205 X10 Y10
G0 F6000 X81.167 Y117.371
M205 X8 Y8
G1 F1200 X92.664 Y128.867 E59.16481
G1 X92.734 Y128.937
M205 X10 Y10
G0 F6000 X93.685 Y129.323
M205 X8 Y8
G1 F1200 X80.392 Y116.031 E60.10266
G1 X80.322 Y115.961
M205 X10 Y10
G0 F6000 X80.097 Y115.169
M205 X8 Y8
G1 F1200 X94.708 Y129.78 E61.13355
G1 X94.778 Y129.85
M205 X10 Y10
G0 F6000 X95.73 Y130.237
M205 X8 Y8
G1 F1200 X79.824 Y114.331 E62.2558
G1 X79.754 Y114.261
M205 X10 Y10
G0 F6000 X79.552 Y113.493
M205 X8 Y8
G1 F1200 X96.725 Y130.666 E63.46745
M205 X10 Y10
G0 F6000 X97.444 Y130.819
M205 X8 Y8
G1 F1200 X79.279 Y112.655 E64.74906
G1 X79.209 Y112.585
M205 X10 Y10
G0 F6000 X79.006 Y111.816
M205 X8 Y8
G1 F1200 X98.162 Y130.972 E66.10061
M205 X10 Y10
G0 F6000 X98.88 Y131.124
M205 X8 Y8
G1 F1200 X78.734 Y110.978 E67.52202
M205 X10 Y10
G0 F6000 X78.577 Y110.255
M205 X8 Y8
G1 F1200 X99.599 Y131.277 E69.00524
M205 X10 Y10
G0 F6000 X100.317 Y131.429
M205 X8 Y8
G1 F1200 X78.511 Y109.623 E70.54377
M205 X10 Y10
G0 F6000 X78.445 Y108.992
M205 X8 Y8
G1 F1200 X101.035 Y131.582 E72.13762
M205 X10 Y10
G0 F6000 X101.753 Y131.735
M205 X8 Y8
G1 F1200 X78.379 Y108.36 E73.78681
M205 X10 Y10
G0 F6000 X78.313 Y107.728
M205 X8 Y8
G1 F1200 X102.408 Y131.824 E75.48688
M205 X10 Y10
G0 F6000 X102.974 Y131.824
M205 X8 Y8
G1 F1200 X78.246 Y107.096 E77.23158
M205 X10 Y10
G0 F6000 X78.181 Y106.465
M205 X8 Y8
G1 F1200 X103.54 Y131.824 E79.02079
M205 X10 Y10
G0 F6000 X104.105 Y131.824
M205 X8 Y8
G1 F1200 X78.114 Y105.833 E80.8546
M205 X10 Y10
