;FLAVOR:Marlin
;TIME:3167
;Filament used: 3.31722m
;Layer height: 0.2
;MINX:68.813
;MINY:68.814
;MINZ:0.3
;MAXX:141.187
;MAXY:141.186
;MAXZ:71.998
;TARGET_MACHINE.NAME:Anycubic i3 Mega S/Pro
;Generated with Cura_SteamEngine 5.8.1
M82 ;absolute extrusion mode
;Profil Homepage: https://github.com/NilsRo/Cura_Anycubic_MegaS_Profile

;Slicer Information - (Support for OctoPrint Slicer Estimator)
;Slicer info:material_guid;0ff92885-617b-4144-a03c-9989872454bc
;Slicer info:material_id;generic_pla_175
;Slicer info:material_brand;Generic
;Slicer info:material_name;PLA
;Slicer info:filament_cost;[0.0]
;Slicer info:material_bed_temperature;60
;Slicer info:material_bed_temperature_layer_0;60
;Slicer info:material_print_temperature;200
;Slicer info:material_print_temperature_layer_0;205
;Slicer info:material_flow;100
;Slicer info:layer_height;0.2
;Slicer info:machine_nozzle_size;0.4
;Slicer info:wall_thickness;1.6
;Slicer info:speed_print;50.0
;Slicer info:speed_topbottom;25.0
;Slicer info:travel_speed;100.0
;Slicer info:support;0
;Slicer info:retraction_speed;30
;Slicer info:retraction_amount;6
;Slicer info:layer_height;0.2
;Slicer info:infill_pattern;cubic
;Slicer info:infill_sparse_density;20.0
;Slicer info:cool_fan_enabled;True
;Slicer info:cool_fan_speed;100
;Slicer info:sliced_at;Tue 08-10-2024 11:47:09
G21                                        ; metric values 
G90                                        ; absolute positioning 
M82                                        ; set extruder to absolute mode 
M900 K0                                    ; disable lin. adv. if not set in GCODE
M107                                       ; start with the fan off 
M140 S60   ; Start heating the bed 
G4 S60                                     ; wait 1 minute 
M104 S205 ; start heating the hot end 
M190 S60   ; wait for bed 
M109 S205 ; wait for hotend 
M300 S1000 P500                            ; BEEP heating done 
G28 X0 Y10 Z0                              ; move X/Y to min endstops 
M420 S1                                    ; Enable leveling 
M420 Z2.0                                  ; Set leveling fading height to 2 mm 
G0 Z0.15                                   ; lift nozzle a bit 
G92 E0                                     ; zero the extruded length 
G1 X50 E20 F500                            ; Extrude 20mm of filament in a 5cm line. 
G92 E0                                     ; zero the extruded length again 
G1 E-2 F500                                ; Retract a little 
G1 X50 F500                                ; wipe away from the filament line
G1 X100 F9000                              ; Quickly wipe away from the filament line
G92 E0
G92 E0
G1 F1800 E-6
;LAYER_COUNT:359
;LAYER:0
M106 S76.5
M205 X10 Y10
G1 F480 Z0.375
G0 F6000 X79.274 Y79.553 Z0.375
M205 X8 Y8
;TYPE:SKIRT
G1 F480 Z0.3
G1 F1800 E0
G1 F1200 X80.177 Y78.671 E0.12595
G1 X81.31 Y77.647 E0.27833
G1 X81.766 Y77.258 E0.33814
G1 X82.831 Y76.402 E0.47448
G1 X83.664 Y75.772 E0.57869
G1 X84.646 Y75.082 E0.69844
G1 X85.722 Y74.372 E0.82707
G1 X86.726 Y73.767 E0.94403
G1 X87.531 Y73.309 E1.03645
G1 X88.53 Y72.78 E1.14924
G1 X89.349 Y72.372 E1.24054
G1 X90.478 Y71.857 E1.36436
G1 X91.623 Y71.377 E1.48824
G1 X92.936 Y70.884 E1.62818
G1 X93.725 Y70.615 E1.71136
G1 X95.03 Y70.216 E1.84752
G1 X95.96 Y69.961 E1.94374
G1 X97.073 Y69.694 E2.05795
G1 X98.139 Y69.469 E2.16666
G1 X99.203 Y69.282 E2.27445
G1 X100.416 Y69.105 E2.39677
G1 X101.514 Y68.983 E2.507
G1 X102.42 Y68.905 E2.59774
G1 X104.11 Y68.826 E2.76655
G1 X105.096 Y68.814 E2.86494
G1 X106.163 Y68.834 E2.97143
G1 X107.267 Y68.883 E3.08169
G1 X107.962 Y68.936 E3.15124
G1 X109.353 Y69.069 E3.29067
G1 X110.695 Y69.267 E3.42602
G1 X112.19 Y69.535 E3.57757
G1 X113.305 Y69.778 E3.69144
G1 X114.113 Y69.978 E3.77449
G1 X115.124 Y70.261 E3.87925
G1 X116.518 Y70.696 E4.02496
G1 X118.033 Y71.241 E4.18561
G1 X119.501 Y71.848 E4.34412
G1 X120.358 Y72.234 E4.4379
G1 X121.376 Y72.732 E4.55098
G1 X122.39 Y73.265 E4.66528
G1 X123.386 Y73.835 E4.77979
G1 X124.347 Y74.42 E4.89205
G1 X125.42 Y75.127 E5.02026
G1 X126.212 Y75.684 E5.11688
G1 X127.178 Y76.408 E5.23733
G1 X127.953 Y77.016 E5.33562
G1 X129.163 Y78.063 E5.49528
G1 X129.746 Y78.597 E5.57416
G1 X130.431 Y79.258 E5.66914
G1 X131.308 Y80.154 E5.79425
G1 X132.246 Y81.188 E5.93355
G1 X132.83 Y81.873 E6.02336
G1 X133.598 Y82.831 E6.14588
G1 X134.238 Y83.679 E6.25189
G1 X135.025 Y84.803 E6.3888
G1 X135.513 Y85.543 E6.47725
G1 X136.072 Y86.453 E6.58381
G1 X136.68 Y87.512 E6.70565
G1 X137.219 Y88.529 E6.8205
G1 X137.707 Y89.516 E6.93036
G1 X138.2 Y90.61 E7.0501
G1 X138.622 Y91.622 E7.1595
G1 X139.169 Y93.083 E7.31516
G1 X139.386 Y93.727 E7.38297
G1 X139.828 Y95.18 E7.53451
G1 X139.997 Y95.793 E7.59796
G1 X140.306 Y97.073 E7.72935
G1 X140.531 Y98.139 E7.83806
G1 X140.717 Y99.203 E7.94583
G1 X140.894 Y100.407 E8.06726
G1 X141.017 Y101.517 E8.17869
G1 X141.109 Y102.624 E8.28953
G1 X141.168 Y103.872 E8.4142
G1 X141.187 Y104.732 E8.50003
G1 X141.168 Y106.116 E8.63814
G1 X141.119 Y107.209 E8.74731
G1 X141.026 Y108.379 E8.86442
G1 X140.907 Y109.494 E8.97631
G1 X140.749 Y110.606 E9.08838
G1 X140.566 Y111.673 E9.1964
G1 X140.309 Y112.916 E9.32305
G1 X140.107 Y113.774 E9.411
G1 X139.757 Y115.064 E9.54437
G1 X139.439 Y116.109 E9.65336
G1 X139.055 Y117.23 E9.77159
G1 X138.672 Y118.254 E9.88068
G1 X138.267 Y119.236 E9.98667
G1 X137.766 Y120.358 E10.10928
G1 X137.26 Y121.391 E10.22406
G1 X136.833 Y122.211 E10.3163
G1 X135.979 Y123.701 E10.48767
G1 X135.581 Y124.345 E10.5632
G1 X134.779 Y125.558 E10.7083
G1 X134.308 Y126.224 E10.78969
G1 X133.537 Y127.25 E10.91775
G1 X132.902 Y128.042 E11.01904
G1 X132.167 Y128.902 E11.13192
G1 X131.424 Y129.724 E11.24248
G1 X130.71 Y130.463 E11.34502
G1 X129.839 Y131.315 E11.46659
G1 X128.915 Y132.156 E11.59126
G1 X128.127 Y132.83 E11.69472
G1 X127.169 Y133.598 E11.81724
G1 X126.336 Y134.227 E11.92139
G1 X125.337 Y134.929 E12.04322
G1 X124.283 Y135.625 E12.16925
G1 X123.274 Y136.233 E12.28679
G1 X122.469 Y136.691 E12.37921
G1 X121.47 Y137.22 E12.492
G1 X120.651 Y137.628 E12.5833
G1 X119.522 Y138.143 E12.70712
G1 X118.377 Y138.623 E12.831
G1 X117.064 Y139.116 E12.97094
G1 X116.275 Y139.385 E13.05412
G1 X114.97 Y139.784 E13.19028
G1 X114.04 Y140.039 E13.2865
G1 X112.927 Y140.306 E13.40071
G1 X111.861 Y140.531 E13.50942
G1 X110.797 Y140.718 E13.61721
G1 X109.584 Y140.895 E13.73953
G1 X108.486 Y141.017 E13.84976
G1 X107.58 Y141.095 E13.94049
G1 X105.89 Y141.174 E14.10931
G1 X104.904 Y141.186 E14.2077
G1 X103.837 Y141.166 E14.31418
G1 X102.732 Y141.117 E14.42455
G1 X101.926 Y141.055 E14.50521
G1 X100.663 Y140.928 E14.63187
G1 X99.305 Y140.733 E14.76876
G1 X97.81 Y140.465 E14.92031
G1 X96.695 Y140.222 E15.03418
G1 X95.887 Y140.022 E15.11723
G1 X94.874 Y139.738 E15.22221
G1 X93.288 Y139.239 E15.38811
G1 X92.563 Y138.982 E15.46486
G1 X91.691 Y138.651 E15.55792
G1 X90.499 Y138.152 E15.68686
G1 X89.642 Y137.766 E15.78065
G1 X88.624 Y137.268 E15.89373
G1 X87.61 Y136.735 E16.00803
G1 X86.614 Y136.165 E16.12254
G1 X85.652 Y135.579 E16.23493
G1 X84.572 Y134.867 E16.364
G1 X83.788 Y134.315 E16.45968
G1 X82.819 Y133.59 E16.58043
G1 X82.036 Y132.975 E16.67978
G1 X80.836 Y131.936 E16.83816
G1 X80.253 Y131.403 E16.91698
G1 X79.585 Y130.758 E17.00963
G1 X78.67 Y129.821 E17.14031
G1 X77.643 Y128.685 E17.29311
G1 X77.17 Y128.127 E17.3661
G1 X76.402 Y127.169 E17.48862
G1 X75.762 Y126.321 E17.59463
G1 X74.974 Y125.196 E17.73168
G1 X74.479 Y124.441 E17.82176
G1 X73.854 Y123.42 E17.94121
G1 X73.318 Y122.485 E18.04874
G1 X72.778 Y121.466 E18.16381
G1 X72.372 Y120.651 E18.25467
G1 X71.857 Y119.522 E18.37849
G1 X71.377 Y118.377 E18.50237
G1 X70.884 Y117.064 E18.64231
G1 X70.612 Y116.268 E18.72624
G1 X70.214 Y114.967 E18.862
G1 X69.961 Y114.04 E18.95788
G1 X69.694 Y112.927 E19.07208
G1 X69.469 Y111.861 E19.18079
G1 X69.282 Y110.797 E19.28859
G1 X69.105 Y109.584 E19.4109
G1 X68.983 Y108.483 E19.52143
G1 X68.891 Y107.376 E19.63227
G1 X68.832 Y106.128 E19.75693
G1 X68.813 Y105.268 E19.84277
G1 X68.832 Y103.888 E19.98048
G1 X68.869 Y102.984 E20.07075
G1 X69.007 Y101.269 E20.24243
G1 X69.093 Y100.506 E20.31904
G1 X69.251 Y99.396 E20.43092
G1 X69.431 Y98.339 E20.5379
G1 X69.691 Y97.084 E20.66579
G1 X69.893 Y96.226 E20.75374
G1 X70.243 Y94.936 E20.88711
G1 X70.561 Y93.891 E20.9961
G1 X70.945 Y92.77 E21.11433
G1 X71.328 Y91.746 E21.22342
G1 X71.733 Y90.764 E21.32941
G1 X72.234 Y89.642 E21.45202
G1 X72.74 Y88.609 E21.5668
G1 X73.167 Y87.789 E21.65904
G1 X74.019 Y86.302 E21.83005
G1 X74.42 Y85.653 E21.90617
G1 X75.127 Y84.58 E22.03438
G1 X75.692 Y83.776 E22.13244
G1 X76.478 Y82.731 E22.26291
G1 X77.102 Y81.952 E22.3625
G1 X77.833 Y81.098 E22.47467
G1 X78.576 Y80.276 E22.58523
G1 X79.274 Y79.553 E22.6855
M205 X10 Y10
G0 F6000 X79.85 Y80.109
M205 X8 Y8
G1 F1200 X80.714 Y79.264 E22.80609
G1 X81.829 Y78.255 E22.95613
G1 X82.267 Y77.881 E23.0136
G1 X83.313 Y77.04 E23.14752
G1 X84.124 Y76.427 E23.24896
G1 X85.106 Y75.737 E23.36872
G1 X86.135 Y75.057 E23.49178
G1 X87.122 Y74.462 E23.60678
G1 X87.906 Y74.016 E23.69678
G1 X88.887 Y73.496 E23.80756
G1 X89.682 Y73.1 E23.89619
G1 X90.787 Y72.595 E24.01741
G1 X91.905 Y72.126 E24.13838
G1 X93.195 Y71.641 E24.2759
G1 X93.959 Y71.38 E24.35645
G1 X95.242 Y70.987 E24.49034
G1 X96.146 Y70.739 E24.58388
G1 X97.239 Y70.477 E24.69603
G1 X98.277 Y70.257 E24.8019
G1 X99.319 Y70.074 E24.90746
G1 X100.505 Y69.9 E25.02707
G1 X101.583 Y69.78 E25.1353
G1 X102.457 Y69.704 E25.22283
G1 X104.12 Y69.626 E25.38895
G1 X105.081 Y69.614 E25.48485
G1 X106.127 Y69.633 E25.58924
G1 X107.207 Y69.681 E25.6971
G1 X107.886 Y69.732 E25.76505
G1 X109.236 Y69.86 E25.90035
G1 X110.554 Y70.055 E26.0333
G1 X112.02 Y70.317 E26.18189
G1 X113.114 Y70.555 E26.29361
G1 X113.897 Y70.748 E26.37407
G1 X114.886 Y71.025 E26.47655
G1 X116.247 Y71.449 E26.61879
G1 X117.762 Y71.994 E26.77944
G1 X119.172 Y72.577 E26.93168
G1 X120.006 Y72.953 E27.02297
G1 X121.024 Y73.451 E27.13605
G1 X121.993 Y73.96 E27.24526
G1 X122.97 Y74.518 E27.35753
G1 X123.907 Y75.088 E27.46696
G1 X124.96 Y75.781 E27.59274
G1 X125.732 Y76.324 E27.68692
G1 X126.684 Y77.037 E27.8056
G1 X127.459 Y77.645 E27.90388
G1 X128.623 Y78.654 E28.05759
G1 X129.19 Y79.172 E28.13422
G1 X129.859 Y79.818 E28.22702
G1 X130.736 Y80.714 E28.35212
G1 X131.637 Y81.707 E28.48591
G1 X132.206 Y82.374 E28.57339
G1 X132.96 Y83.313 E28.69355
G1 X133.583 Y84.138 E28.7967
G1 X134.357 Y85.243 E28.93132
G1 X134.831 Y85.962 E29.01725
G1 X135.378 Y86.852 E29.12148
G1 X135.973 Y87.887 E29.2406
G1 X136.502 Y88.884 E29.35322
G1 X136.978 Y89.845 E29.46023
G1 X137.462 Y90.918 E29.57768
G1 X137.873 Y91.902 E29.68409
G1 X138.411 Y93.339 E29.83719
G1 X138.621 Y93.96 E29.9026
G1 X139.057 Y95.392 E30.05196
G1 X139.219 Y95.981 E30.11291
G1 X139.523 Y97.239 E30.24205
G1 X139.743 Y98.277 E30.34792
G1 X139.926 Y99.319 E30.45349
G1 X140.099 Y100.496 E30.57219
G1 X140.22 Y101.583 E30.68132
G1 X140.31 Y102.662 E30.78936
G1 X140.368 Y103.89 E30.91203
G1 X140.387 Y104.721 E30.99496
G1 X140.369 Y106.081 E31.13068
G1 X140.322 Y107.146 E31.23705
G1 X140.231 Y108.294 E31.35195
G1 X140.115 Y109.381 E31.46103
G1 X139.96 Y110.471 E31.57089
G1 X139.782 Y111.511 E31.67617
G1 X139.53 Y112.733 E31.80066
G1 X139.335 Y113.565 E31.88593
G1 X138.992 Y114.831 E32.01681
G1 X138.682 Y115.85 E32.12308
G1 X138.306 Y116.95 E32.23908
G1 X137.933 Y117.949 E32.34548
G1 X137.536 Y118.91 E32.44923
G1 X137.047 Y120.006 E32.56898
G1 X136.55 Y121.022 E32.68184
G1 X136.139 Y121.813 E32.77078
G1 X135.299 Y123.28 E32.93946
G1 X134.913 Y123.904 E33.01267
G1 X134.126 Y125.096 E33.15519
G1 X133.668 Y125.743 E33.23429
G1 X132.897 Y126.769 E33.36235
G1 X132.294 Y127.522 E33.4586
G1 X131.574 Y128.365 E33.56922
G1 X130.848 Y129.168 E33.67724
G1 X130.15 Y129.891 E33.77751
G1 X129.3 Y130.723 E33.89619
G1 X128.394 Y131.548 E34.01846
G1 X127.626 Y132.206 E34.11937
G1 X126.687 Y132.96 E34.23953
G1 X125.876 Y133.573 E34.34097
G1 X124.896 Y134.262 E34.4605
G1 X123.87 Y134.94 E34.58321
G1 X122.878 Y135.538 E34.69879
G1 X122.094 Y135.984 E34.78879
G1 X121.113 Y136.504 E34.89957
G1 X120.318 Y136.9 E34.98819
G1 X119.213 Y137.405 E35.10942
G1 X118.095 Y137.874 E35.23039
G1 X116.805 Y138.359 E35.36791
G1 X116.041 Y138.62 E35.44846
G1 X114.758 Y139.013 E35.58235
G1 X113.854 Y139.261 E35.67589
G1 X112.761 Y139.523 E35.78804
G1 X111.723 Y139.743 E35.89391
G1 X110.681 Y139.926 E35.99947
G1 X109.495 Y140.1 E36.11908
G1 X108.417 Y140.22 E36.22731
G1 X107.543 Y140.296 E36.31484
G1 X105.88 Y140.374 E36.48096
G1 X104.919 Y140.386 E36.57686
G1 X103.873 Y140.367 E36.68124
G1 X102.793 Y140.319 E36.78911
G1 X102.006 Y140.259 E36.86787
G1 X100.777 Y140.136 E36.99111
G1 X99.446 Y139.945 E37.12528
G1 X97.98 Y139.683 E37.27388
G1 X96.886 Y139.445 E37.38559
G1 X96.103 Y139.252 E37.46605
G1 X95.114 Y138.975 E37.56854
G1 X93.555 Y138.485 E37.7316
G1 X92.847 Y138.234 E37.80655
G1 X92 Y137.913 E37.89693
G1 X90.828 Y137.423 E38.02368
G1 X89.994 Y137.047 E38.11496
G1 X88.976 Y136.549 E38.22804
G1 X88.007 Y136.04 E38.33726
G1 X87.03 Y135.482 E38.44952
G1 X86.092 Y134.911 E38.55909
G1 X85.032 Y134.213 E38.68573
G1 X84.267 Y133.675 E38.77905
G1 X83.313 Y132.961 E38.89795
G1 X82.53 Y132.346 E38.9973
G1 X81.376 Y131.345 E39.14972
G1 X80.809 Y130.827 E39.22636
G1 X80.141 Y130.182 E39.31901
G1 X79.263 Y129.284 E39.44432
G1 X78.253 Y128.167 E39.59458
G1 X77.794 Y127.626 E39.66538
G1 X77.04 Y126.687 E39.78554
G1 X76.417 Y125.862 E39.88869
G1 X75.643 Y124.757 E40.02331
G1 X75.161 Y124.023 E40.11092
G1 X74.548 Y123.022 E40.22805
G1 X74.025 Y122.11 E40.33295
G1 X73.494 Y121.109 E40.44601
G1 X73.1 Y120.318 E40.53419
G1 X72.595 Y119.213 E40.65541
G1 X72.126 Y118.095 E40.77638
G1 X71.641 Y116.805 E40.9139
G1 X71.377 Y116.034 E40.99521
G1 X70.986 Y114.756 E41.12857
G1 X70.739 Y113.854 E41.22188
G1 X70.477 Y112.761 E41.33403
G1 X70.257 Y111.723 E41.4399
G1 X70.074 Y110.681 E41.54547
G1 X69.9 Y109.495 E41.66507
G1 X69.78 Y108.417 E41.7733
G1 X69.69 Y107.338 E41.88134
G1 X69.632 Y106.11 E42.004
G1 X69.613 Y105.279 E42.08694
G1 X69.631 Y103.92 E42.22256
G1 X69.666 Y103.048 E42.30964
G1 X69.802 Y101.358 E42.47881
G1 X69.885 Y100.619 E42.55301
G1 X70.04 Y99.53 E42.66277
G1 X70.22 Y98.473 E42.76975
G1 X70.47 Y97.267 E42.89265
G1 X70.665 Y96.435 E42.97791
G1 X71.008 Y95.169 E43.10879
G1 X71.318 Y94.15 E43.21507
G1 X71.694 Y93.05 E43.33106
G1 X72.067 Y92.051 E43.43746
G1 X72.464 Y91.09 E43.54121
G1 X72.953 Y89.994 E43.66096
G1 X73.45 Y88.978 E43.77382
G1 X73.861 Y88.187 E43.86276
G1 X74.7 Y86.722 E44.03122
G1 X75.088 Y86.093 E44.10496
G1 X75.781 Y85.04 E44.23074
G1 X76.332 Y84.257 E44.32627
G1 X77.103 Y83.231 E44.45433
G1 X77.71 Y82.472 E44.5513
G1 X78.426 Y81.635 E44.66121
G1 X79.152 Y80.832 E44.76923
G1 X79.85 Y80.109 E44.8695
M205 X10 Y10
G1 F1800 E38.8695
G1 F480 Z0.375
;MESH:wine_glass_top.stl
G0 F6000 X83.424 Y84.737 Z0.375
M205 X8 Y8
;TYPE:WALL-OUTER
G1 F480 Z0.3
G1 F1800 E44.8695
G1 F1200 X84.737 Y83.424 E45.05478
G1 X86.137 Y82.189 E45.24106
G1 X87.609 Y81.047 E45.42695
G1 X89.156 Y79.998 E45.61345
G1 X90.741 Y79.061 E45.79717
G1 X92.395 Y78.218 E45.98241
G1 X94.105 Y77.478 E46.16833
G1 X95.854 Y76.848 E46.35382
G1 X97.641 Y76.33 E46.53947
G1 X99.45 Y75.925 E46.72444
G1 X101.291 Y75.634 E46.91041
G1 X103.135 Y75.459 E47.09524
G1 X105.014 Y75.4 E47.28281
G1 X106.88 Y75.46 E47.4691
G1 X108.722 Y75.636 E47.65373
G1 X110.564 Y75.928 E47.83982
G1 X112.373 Y76.334 E48.02482
G1 X114.165 Y76.854 E48.211
G1 X115.909 Y77.484 E48.39602
G1 X117.619 Y78.225 E48.58198
G1 X119.259 Y79.061 E48.76565
G1 X120.857 Y80.005 E48.95085
G1 X122.415 Y81.065 E49.13887
G1 X123.874 Y82.199 E49.32325
G1 X125.263 Y83.424 E49.50805
G1 X126.576 Y84.737 E49.69333
G1 X127.815 Y86.142 E49.88024
G1 X128.944 Y87.596 E50.06392
G1 X129.994 Y89.143 E50.25048
G1 X130.939 Y90.741 E50.43572
G1 X131.782 Y92.395 E50.62096
G1 X132.522 Y94.105 E50.80688
G1 X133.152 Y95.854 E50.99237
G1 X133.67 Y97.641 E51.17802
G1 X134.075 Y99.45 E51.36299
G1 X134.366 Y101.291 E51.54896
G1 X134.541 Y103.129 E51.73319
G1 X134.6 Y105 E51.91997
G1 X134.541 Y106.865 E52.10615
G1 X134.366 Y108.709 E52.29098
