;FLAVOR:Marlin
;TIME:1627
;Filament used: 1.91303m
;Layer height: 0.2
;MINX:69.114
;MINY:69.114
;MINZ:0.3
;MAXX:140.886
;MAXY:140.886
;MAXZ:26.997
;TARGET_MACHINE.NAME:Anycubic i3 Mega S/Pro
;Generated with Cura_SteamEngine 5.8.1
M82 ;absolute extrusion mode
;Profil Homepage: https://github.com/NilsRo/Cura_Anycubic_MegaS_Profile

;Slicer Information - (Support for OctoPrint Slicer Estimator)
;Slicer info:material_guid;0ff92885-617b-4144-a03c-9989872454bc
;Slicer info:material_id;generic_pla_175
;Slicer info:material_brand;Generic
;Slicer info:material_name;PLA
;Slicer info:filament_cost;[0.0]
;Slicer info:material_bed_temperature;60
;Slicer info:material_bed_temperature_layer_0;60
;Slicer info:material_print_temperature;200
;Slicer info:material_print_temperature_layer_0;205
;Slicer info:material_flow;100
;Slicer info:layer_height;0.2
;Slicer info:machine_nozzle_size;0.4
;Slicer info:wall_thickness;1.6
;Slicer info:speed_print;50.0
;Slicer info:speed_topbottom;25.0
;Slicer info:travel_speed;100.0
;Slicer info:support;0
;Slicer info:retraction_speed;30
;Slicer info:retraction_amount;6
;Slicer info:layer_height;0.2
;Slicer info:infill_pattern;cubic
;Slicer info:infill_sparse_density;20.0
;Slicer info:cool_fan_enabled;True
;Slicer info:cool_fan_speed;100
;Slicer info:sliced_at;Tue 08-10-2024 11:48:47
G21                                        ; metric values 
G90                                        ; absolute positioning 
M82                                        ; set extruder to absolute mode 
M900 K0                                    ; disable lin. adv. if not set in GCODE
M107                                       ; start with the fan off 
M140 S60   ; Start heating the bed 
G4 S60                                     ; wait 1 minute 
M104 S205 ; start heating the hot end 
M190 S60   ; wait for bed 
M109 S205 ; wait for hotend 
M300 S1000 P500                            ; BEEP heating done 
G28 X0 Y10 Z0                              ; move X/Y to min endstops 
M420 S1                                    ; Enable leveling 
M420 Z2.0                                  ; Set leveling fading height to 2 mm 
G0 Z0.15                                   ; lift nozzle a bit 
G92 E0                                     ; zero the extruded length 
G1 X50 E20 F500                            ; Extrude 20mm of filament in a 5cm line. 
G92 E0                                     ; zero the extruded length again 
G1 E-2 F500                                ; Retract a little 
G1 X50 F500                                ; wipe away from the filament line
G1 X100 F9000                              ; Quickly wipe away from the filament line
G92 E0
G92 E0
G1 F1800 E-6
;LAYER_COUNT:134
;LAYER:0
M106 S76.5
M205 X10 Y10
G1 F480 Z0.375
G0 F6000 X79.604 Y79.645 Z0.375
M205 X8 Y8
;TYPE:SKIRT
G1 F480 Z0.3
G1 F1800 E0
G1 F1200 X80.347 Y78.92 E0.10358
G1 X81.287 Y78.067 E0.23024
G1 X82.132 Y77.345 E0.34114
G1 X82.928 Y76.704 E0.44311
G1 X83.624 Y76.173 E0.53047
G1 X84.764 Y75.366 E0.66983
G1 X85.778 Y74.695 E0.79116
G1 X86.743 Y74.107 E0.90391
G1 X87.689 Y73.565 E1.0127
G1 X88.632 Y73.065 E1.1192
G1 X89.625 Y72.573 E1.22978
G1 X90.658 Y72.105 E1.34293
G1 X91.746 Y71.651 E1.46057
G1 X92.808 Y71.249 E1.57387
G1 X93.822 Y70.898 E1.68094
G1 X94.998 Y70.537 E1.80368
G1 X96.02 Y70.254 E1.9095
G1 X96.983 Y70.021 E2.00836
G1 X98.173 Y69.768 E2.12975
G1 X99.393 Y69.555 E2.25332
G1 X100.449 Y69.403 E2.35978
G1 X101.608 Y69.276 E2.47612
G1 X102.663 Y69.19 E2.58173
G1 X103.871 Y69.133 E2.7024
G1 X104.773 Y69.114 E2.79242
G1 X106.084 Y69.132 E2.92325
G1 X107.157 Y69.178 E3.03041
G1 X108.417 Y69.277 E3.15652
G1 X109.483 Y69.394 E3.26353
G1 X110.796 Y69.585 E3.39592
G1 X111.638 Y69.733 E3.48122
G1 X112.961 Y70.009 E3.61607
G1 X113.955 Y70.248 E3.71808
G1 X115.221 Y70.6 E3.84919
G1 X115.943 Y70.823 E3.92459
G1 X117.233 Y71.265 E4.06066
G1 X118.185 Y71.623 E4.16214
G1 X119.302 Y72.088 E4.28287
G1 X120.096 Y72.443 E4.36965
G1 X121.329 Y73.046 E4.50661
G1 X122.271 Y73.543 E4.61288
G1 X123.233 Y74.093 E4.72345
G1 X124.131 Y74.639 E4.82831
G1 X125.207 Y75.344 E4.95667
G1 X125.991 Y75.893 E5.05217
G1 X127.048 Y76.687 E5.18408
G1 X127.866 Y77.343 E5.28871
G1 X128.682 Y78.039 E5.39572
G1 X129.487 Y78.767 E5.50402
G1 X130.652 Y79.905 E5.66652
G1 X131.166 Y80.442 E5.74069
G1 X132.136 Y81.517 E5.88517
G1 X132.642 Y82.114 E5.96325
G1 X133.296 Y82.928 E6.06744
G1 X133.827 Y83.624 E6.15479
G1 X134.634 Y84.764 E6.29416
G1 X135.299 Y85.769 E6.4144
G1 X135.893 Y86.743 E6.52824
G1 X136.435 Y87.689 E6.63702
G1 X136.931 Y88.626 E6.74281
G1 X137.424 Y89.619 E6.85343
G1 X137.958 Y90.803 E6.98303
G1 X138.349 Y91.746 E7.08489
G1 X138.75 Y92.804 E7.19779
G1 X139.103 Y93.822 E7.3053
G1 X139.463 Y94.997 E7.42792
G1 X139.746 Y96.021 E7.53392
G1 X140.013 Y97.134 E7.64813
G1 X140.232 Y98.172 E7.75398
G1 X140.445 Y99.392 E7.87756
G1 X140.597 Y100.448 E7.98401
G1 X140.71 Y101.464 E8.08601
G1 X140.81 Y102.66 E8.20577
G1 X140.867 Y103.871 E8.32673
G1 X140.886 Y104.772 E8.41666
G1 X140.868 Y106.084 E8.54758
G1 X140.822 Y107.157 E8.65474
G1 X140.723 Y108.417 E8.78085
G1 X140.606 Y109.483 E8.88786
G1 X140.415 Y110.796 E9.02025
G1 X140.267 Y111.638 E9.10555
G1 X139.991 Y112.961 E9.2404
G1 X139.752 Y113.955 E9.34241
G1 X139.4 Y115.221 E9.47353
G1 X139.177 Y115.943 E9.54893
G1 X138.735 Y117.232 E9.68489
G1 X138.367 Y118.208 E9.78897
G1 X137.912 Y119.302 E9.9072
G1 X137.557 Y120.096 E9.99398
G1 X136.954 Y121.329 E10.13093
G1 X136.46 Y122.266 E10.23663
G1 X135.91 Y123.229 E10.34728
G1 X135.47 Y123.959 E10.43233
G1 X134.656 Y125.207 E10.581
G1 X134.107 Y125.991 E10.6765
G1 X133.313 Y127.048 E10.80841
G1 X132.658 Y127.866 E10.91298
G1 X131.959 Y128.685 E11.02041
G1 X131.21 Y129.515 E11.13197
G1 X130.396 Y130.355 E11.24868
G1 X129.653 Y131.08 E11.35226
G1 X128.713 Y131.933 E11.47892
G1 X127.874 Y132.65 E11.58904
G1 X127.072 Y133.296 E11.69179
G1 X126.376 Y133.827 E11.77914
G1 X125.236 Y134.634 E11.91851
G1 X124.222 Y135.305 E12.03983
G1 X123.257 Y135.893 E12.15259
G1 X122.311 Y136.435 E12.26138
G1 X121.37 Y136.934 E12.36765
G1 X120.382 Y137.423 E12.47765
G1 X119.197 Y137.958 E12.60738
G1 X118.254 Y138.349 E12.70924
G1 X117.192 Y138.751 E12.82255
G1 X116.178 Y139.102 E12.92962
G1 X115.002 Y139.463 E13.05236
G1 X113.98 Y139.746 E13.15817
G1 X113.017 Y139.979 E13.25704
G1 X111.827 Y140.232 E13.37843
G1 X110.607 Y140.445 E13.502
G1 X109.551 Y140.597 E13.60846
G1 X108.392 Y140.724 E13.72479
G1 X107.337 Y140.81 E13.83041
G1 X106.129 Y140.867 E13.95108
G1 X105.227 Y140.886 E14.0411
G1 X103.916 Y140.868 E14.17193
G1 X102.843 Y140.822 E14.27909
G1 X101.583 Y140.723 E14.4052
G1 X100.517 Y140.606 E14.5122
G1 X99.204 Y140.415 E14.6446
G1 X98.362 Y140.267 E14.7299
G1 X97.039 Y139.991 E14.86475
G1 X96.045 Y139.752 E14.96676
G1 X94.779 Y139.4 E15.09787
G1 X94.057 Y139.177 E15.17327
G1 X92.767 Y138.735 E15.30933
G1 X91.815 Y138.377 E15.41082
G1 X90.698 Y137.912 E15.53155
G1 X89.904 Y137.557 E15.61833
G1 X88.671 Y136.954 E15.75528
G1 X87.729 Y136.457 E15.86156
G1 X86.785 Y135.918 E15.97002
G1 X86.039 Y135.468 E16.05695
G1 X84.926 Y134.746 E16.18933
G1 X84.009 Y134.107 E16.30085
G1 X82.953 Y133.315 E16.43256
G1 X82.269 Y132.77 E16.51983
G1 X81.318 Y131.961 E16.64441
G1 X80.513 Y131.233 E16.75271
G1 X79.466 Y130.214 E16.89849
G1 X78.833 Y129.557 E16.98952
G1 X77.864 Y128.483 E17.13385
G1 X77.358 Y127.886 E17.21194
G1 X76.704 Y127.072 E17.31613
G1 X76.173 Y126.376 E17.40348
G1 X75.38 Y125.257 E17.54033
G1 X74.695 Y124.221 E17.66425
G1 X74.108 Y123.259 E17.7767
G1 X73.562 Y122.307 E17.88621
G1 X73.066 Y121.37 E17.99199
G1 X72.577 Y120.382 E18.10199
G1 X72.042 Y119.197 E18.23172
G1 X71.651 Y118.254 E18.33358
G1 X71.249 Y117.192 E18.44689
G1 X70.898 Y116.178 E18.55395
G1 X70.537 Y115.002 E18.6767
G1 X70.254 Y113.98 E18.78251
G1 X70.021 Y113.017 E18.88137
G1 X69.768 Y111.827 E19.00277
G1 X69.555 Y110.607 E19.12634
G1 X69.403 Y109.551 E19.23279
G1 X69.276 Y108.392 E19.34913
G1 X69.19 Y107.338 E19.45465
G1 X69.138 Y106.278 E19.56054
G1 X69.114 Y105.197 E19.66843
G1 X69.137 Y103.747 E19.81313
G1 X69.179 Y102.833 E19.90443
G1 X69.277 Y101.585 E20.02934
G1 X69.394 Y100.514 E20.13684
G1 X69.585 Y99.203 E20.26903
G1 X69.733 Y98.362 E20.35424
G1 X70.009 Y97.039 E20.48909
G1 X70.248 Y96.044 E20.59119
G1 X70.638 Y94.649 E20.73572
G1 X70.825 Y94.048 E20.79853
G1 X71.215 Y92.909 E20.91866
G1 X71.633 Y91.792 E21.03766
G1 X72.088 Y90.698 E21.15588
G1 X72.443 Y89.904 E21.24267
G1 X73.044 Y88.674 E21.37926
G1 X73.543 Y87.728 E21.48598
G1 X74.093 Y86.767 E21.59647
G1 X74.639 Y85.869 E21.70133
G1 X75.344 Y84.793 E21.82969
G1 X75.893 Y84.009 E21.92519
G1 X76.687 Y82.952 E22.0571
G1 X77.342 Y82.134 E22.16166
G1 X78.041 Y81.315 E22.2691
G1 X78.79 Y80.485 E22.38065
G1 X79.604 Y79.645 E22.49736
M205 X10 Y10
G0 F6000 X80.163 Y80.218
M205 X8 Y8
G1 F1200 X80.906 Y79.493 E22.60095
G1 X81.807 Y78.675 E22.72237
G1 X82.633 Y77.968 E22.83086
G1 X83.414 Y77.34 E22.93086
G1 X84.087 Y76.826 E23.01535
G1 X85.206 Y76.033 E23.1522
G1 X86.195 Y75.378 E23.27057
G1 X87.141 Y74.801 E23.38113
G1 X88.064 Y74.272 E23.48728
G1 X88.987 Y73.782 E23.59155
G1 X89.955 Y73.302 E23.69936
G1 X90.967 Y72.843 E23.81024
G1 X92.029 Y72.399 E23.9251
G1 X93.07 Y72.005 E24.03616
G1 X94.057 Y71.663 E24.14039
G1 X95.211 Y71.308 E24.26086
G1 X96.208 Y71.032 E24.36408
G1 X97.171 Y70.799 E24.46294
G1 X98.31 Y70.556 E24.57915
G1 X99.508 Y70.347 E24.70049
G1 X100.537 Y70.198 E24.80424
G1 X101.673 Y70.073 E24.91827
G1 X102.701 Y69.989 E25.02119
G1 X103.888 Y69.933 E25.13976
G1 X104.762 Y69.914 E25.22699
G1 X106.05 Y69.931 E25.35552
G1 X107.094 Y69.976 E25.45978
G1 X108.354 Y70.075 E25.58589
G1 X109.368 Y70.186 E25.68768
G1 X110.658 Y70.373 E25.81774
G1 X111.475 Y70.516 E25.9005
G1 X112.774 Y70.787 E26.0329
G1 X113.741 Y71.019 E26.13213
G1 X114.986 Y71.365 E26.26106
G1 X115.684 Y71.58 E26.33394
G1 X116.951 Y72.014 E26.46757
G1 X117.903 Y72.372 E26.56906
G1 X118.976 Y72.819 E26.68504
G1 X119.745 Y73.162 E26.76906
G1 X120.956 Y73.754 E26.90356
G1 X121.874 Y74.238 E27.00711
G1 X122.818 Y74.777 E27.11557
G1 X123.693 Y75.308 E27.2177
G1 X124.748 Y75.999 E27.34354
G1 X125.511 Y76.533 E27.43646
G1 X126.548 Y77.311 E27.56582
G1 X127.347 Y77.951 E27.66797
G1 X128.146 Y78.633 E27.77278
G1 X128.928 Y79.339 E27.87791
G1 X130.074 Y80.458 E28.03773
G1 X130.572 Y80.978 E28.10957
G1 X131.526 Y82.035 E28.25164
G1 X132.018 Y82.615 E28.32753
G1 X132.66 Y83.414 E28.4298
G1 X133.174 Y84.087 E28.5143
G1 X133.967 Y85.206 E28.65115
G1 X134.616 Y86.186 E28.76843
G1 X135.199 Y87.141 E28.88008
G1 X135.728 Y88.064 E28.98623
G1 X136.215 Y88.982 E29.08992
G1 X136.695 Y89.948 E29.19755
G1 X137.219 Y91.11 E29.32474
G1 X137.601 Y92.029 E29.42404
G1 X137.994 Y93.067 E29.53479
G1 X138.338 Y94.057 E29.63937
G1 X138.692 Y95.21 E29.75971
G1 X138.968 Y96.208 E29.86303
G1 X139.23 Y97.3 E29.97508
G1 X139.444 Y98.31 E30.0781
G1 X139.653 Y99.507 E30.19934
G1 X139.802 Y100.537 E30.30319
G1 X139.913 Y101.531 E30.40298
G1 X140.011 Y102.698 E30.51984
G1 X140.067 Y103.888 E30.63871
G1 X140.086 Y104.761 E30.72584
G1 X140.069 Y106.05 E30.85447
G1 X140.024 Y107.094 E30.95873
G1 X139.925 Y108.354 E31.08484
G1 X139.814 Y109.368 E31.18663
G1 X139.627 Y110.658 E31.31669
G1 X139.484 Y111.475 E31.39945
G1 X139.213 Y112.774 E31.53185
G1 X138.981 Y113.741 E31.63108
G1 X138.635 Y114.986 E31.76001
G1 X138.42 Y115.684 E31.83289
G1 X137.986 Y116.95 E31.96643
G1 X137.628 Y117.901 E32.06782
G1 X137.181 Y118.976 E32.18399
G1 X136.838 Y119.745 E32.268
G1 X136.246 Y120.956 E32.4025
G1 X135.765 Y121.869 E32.50547
G1 X135.224 Y122.817 E32.61438
G1 X134.8 Y123.522 E32.69647
G1 X134.001 Y124.748 E32.84249
G1 X133.467 Y125.511 E32.93541
G1 X132.689 Y126.548 E33.06477
G1 X132.049 Y127.347 E33.16692
G1 X131.365 Y128.149 E33.27209
G1 X130.635 Y128.958 E33.38082
G1 X129.837 Y129.782 E33.49527
G1 X129.094 Y130.507 E33.59886
G1 X128.193 Y131.325 E33.72028
G1 X127.373 Y132.027 E33.82799
G1 X126.586 Y132.66 E33.92877
G1 X125.913 Y133.174 E34.01327
G1 X124.794 Y133.967 E34.15011
G1 X123.805 Y134.622 E34.26848
G1 X122.859 Y135.199 E34.37904
G1 X121.936 Y135.728 E34.48519
G1 X121.015 Y136.217 E34.58924
G1 X120.053 Y136.694 E34.69638
G1 X118.89 Y137.219 E34.8237
G1 X117.971 Y137.601 E34.92301
G1 X116.93 Y137.995 E35.03407
G1 X115.943 Y138.337 E35.1383
G1 X114.789 Y138.692 E35.25877
G1 X113.792 Y138.968 E35.36199
G1 X112.829 Y139.201 E35.46085
G1 X111.69 Y139.444 E35.57706
G1 X110.492 Y139.653 E35.6984
G1 X109.463 Y139.802 E35.80215
G1 X108.327 Y139.927 E35.91618
G1 X107.299 Y140.011 E36.0191
G1 X106.112 Y140.067 E36.13767
G1 X105.238 Y140.086 E36.2249
G1 X103.95 Y140.069 E36.35343
G1 X102.906 Y140.024 E36.45769
G1 X101.646 Y139.925 E36.5838
G1 X100.632 Y139.814 E36.68559
G1 X99.342 Y139.627 E36.81565
G1 X98.525 Y139.484 E36.89841
G1 X97.226 Y139.213 E37.03081
G1 X96.259 Y138.981 E37.13004
G1 X95.014 Y138.635 E37.25897
G1 X94.316 Y138.42 E37.33185
G1 X93.049 Y137.986 E37.46548
G1 X92.097 Y137.628 E37.56697
G1 X91.024 Y137.181 E37.68295
G1 X90.255 Y136.838 E37.76697
G1 X89.044 Y136.246 E37.90147
G1 X88.126 Y135.762 E38.00502
G1 X87.182 Y135.223 E38.11348
G1 X86.474 Y134.797 E38.19593
G1 X85.383 Y134.089 E38.3257
G1 X84.489 Y133.467 E38.43437
G1 X83.451 Y132.689 E38.56381
G1 X82.787 Y132.16 E38.64852
G1 X81.854 Y131.367 E38.7707
G1 X81.071 Y130.66 E38.87596
G1 X80.042 Y129.658 E39.01927
G1 X79.427 Y129.021 E39.10762
G1 X78.474 Y127.965 E39.24955
G1 X77.982 Y127.385 E39.32544
G1 X77.34 Y126.586 E39.42771
G1 X76.826 Y125.913 E39.51221
G1 X76.033 Y124.794 E39.64906
G1 X75.378 Y123.804 E39.76751
G1 X74.802 Y122.861 E39.87776
G1 X74.269 Y121.933 E39.98455
G1 X73.783 Y121.015 E40.08819
G1 X73.306 Y120.053 E40.19533
G1 X72.781 Y118.89 E40.32265
G1 X72.399 Y117.971 E40.42196
G1 X72.005 Y116.93 E40.53302
G1 X71.663 Y115.943 E40.63725
G1 X71.308 Y114.789 E40.75772
G1 X71.032 Y113.792 E40.86094
G1 X70.799 Y112.829 E40.9598
G1 X70.556 Y111.69 E41.07601
G1 X70.347 Y110.492 E41.19735
G1 X70.198 Y109.463 E41.3011
G1 X70.073 Y108.327 E41.41513
G1 X69.989 Y107.299 E41.51805
G1 X69.938 Y106.26 E41.62184
G1 X69.914 Y105.209 E41.72674
G1 X69.936 Y103.784 E41.86894
G1 X69.977 Y102.896 E41.95764
G1 X70.075 Y101.648 E42.08255
G1 X70.186 Y100.629 E42.18483
G1 X70.373 Y99.341 E42.31469
G1 X70.516 Y98.525 E42.39736
G1 X70.787 Y97.226 E42.52976
G1 X71.019 Y96.259 E42.62899
G1 X71.402 Y94.886 E42.77122
G1 X71.582 Y94.307 E42.83172
G1 X71.964 Y93.189 E42.9496
G1 X72.372 Y92.099 E43.06573
G1 X72.819 Y91.024 E43.1819
G1 X73.162 Y90.255 E43.26592
G1 X73.752 Y89.047 E43.40006
G1 X74.238 Y88.125 E43.50406
G1 X74.777 Y87.182 E43.61244
G1 X75.308 Y86.307 E43.71456
G1 X75.999 Y85.252 E43.8404
G1 X76.533 Y84.489 E43.93333
G1 X77.311 Y83.452 E44.06268
G1 X77.951 Y82.653 E44.16483
G1 X78.635 Y81.851 E44.27
G1 X79.365 Y81.042 E44.37873
G1 X80.163 Y80.218 E44.49319
M205 X10 Y10
G1 F1800 E38.49319
G1 F480 Z0.375
;MESH:wine_glass_bottom.stl
G0 F6000 X104.999 Y134.295 Z0.375
M205 X8 Y8
;TYPE:WALL-OUTER
G1 F480 Z0.3
G1 F1800 E44.49319
G1 F1200 X103.165 Y134.24 E44.67627
G1 X101.318 Y134.066 E44.86138
G1 X99.511 Y133.782 E45.04389
G1 X97.732 Y133.384 E45.22579
G1 X95.936 Y132.863 E45.41239
G1 X94.18 Y132.228 E45.5987
G1 X92.491 Y131.494 E45.78246
G1 X90.877 Y130.669 E45.96332
G1 X89.303 Y129.741 E46.14564
G1 X87.772 Y128.7 E46.33038
G1 X86.32 Y127.567 E46.51414
G1 X84.938 Y126.356 E46.69749
G1 X83.605 Y125.018 E46.88595
G1 X82.421 Y123.668 E47.06512
G1 X81.296 Y122.228 E47.24745
G1 X80.235 Y120.658 E47.43652
G1 X79.323 Y119.111 E47.61571
G1 X78.486 Y117.469 E47.79961
G1 X77.752 Y115.78 E47.98336
G1 X77.129 Y114.048 E48.16702
G1 X76.612 Y112.265 E48.35226
G1 X76.218 Y110.481 E48.53456
G1 X75.934 Y108.677 E48.71678
G1 X75.756 Y106.83 E48.90193
G1 X75.701 Y105.003 E49.08431
G1 X75.756 Y103.165 E49.26779
G1 X75.93 Y101.331 E49.45161
G1 X76.218 Y99.515 E49.63507
G1 X76.612 Y97.731 E49.81737
G1 X77.129 Y95.949 E50.00251
G1 X77.772 Y94.181 E50.19023
G1 X78.506 Y92.491 E50.37407
G1 X79.323 Y90.889 E50.55351
G1 X80.259 Y89.303 E50.73726
G1 X81.296 Y87.772 E50.92177
G1 X82.421 Y86.328 E51.10442
